( pcb2gcode 1.1.4 )

G94     ( Inches per minute feed rate. )
G20     ( Units == INCHES.             )
G90     ( Absolute coordinates.        )
S20000  ( RPM spindle speed.           )
M3      ( Spindle on clockwise.        )

G64 P0.00500 ( set maximum deviation from commanded toolpath )

G04 P0 ( dwell for no time -- G64 should not smooth over this point )
G00 Z0.08000 ( retract )

G00 X5.37700 Y-1.50000 ( rapid move to begin. )
G01 Z-0.00800 F6.00000 ( plunge. )
G04 P0 ( dwell for no time -- G64 should not smooth over this point )
X5.37700 Y-1.50000
X5.37800 Y-1.50000
X5.37800 Y-1.50100
X5.37900 Y-1.50100
X5.37900 Y-1.50300
X5.38000 Y-1.50300
X5.38000 Y-4.71600
X5.37900 Y-4.71600
X5.37900 Y-4.71800
X5.37800 Y-4.71800
X5.37800 Y-4.71900
X5.37700 Y-4.71900
X5.37700 Y-4.72000
X1.48200 Y-4.72000
X1.48200 Y-4.71900
X1.48100 Y-4.71900
X1.48100 Y-4.71800
X1.48000 Y-4.71800
X1.48000 Y-4.71600
X1.47900 Y-4.71600
X1.47900 Y-1.50300
X1.48000 Y-1.50300
X1.48000 Y-1.50100
X1.48100 Y-1.50100
X1.48100 Y-1.50000
X1.48200 Y-1.50000
X1.48200 Y-1.49900
X5.37700 Y-1.49900
X5.37700 Y-1.50000
G04 P0 ( dwell for no time -- G64 should not smooth over this point )
G00 Z0.08000 ( retract )

G00 X3.64200 Y-1.67500 ( rapid move to begin. )
G01 Z-0.00800 F6.00000 ( plunge. )
G04 P0 ( dwell for no time -- G64 should not smooth over this point )
X3.64200 Y-1.67500
X3.64400 Y-1.67500
X3.64400 Y-1.67600
X3.64500 Y-1.67600
X3.64500 Y-1.67700
X3.64600 Y-1.67700
X3.64600 Y-1.67800
X3.64700 Y-1.67800
X3.64700 Y-1.67900
X3.64800 Y-1.67900
X3.64800 Y-1.68000
X3.64900 Y-1.68000
X3.64900 Y-1.68100
X3.65000 Y-1.68100
X3.65000 Y-1.68200
X3.65100 Y-1.68200
X3.65100 Y-1.68300
X3.65200 Y-1.68300
X3.65200 Y-1.68400
X3.65300 Y-1.68400
X3.65300 Y-1.68500
X3.65400 Y-1.68500
X3.65400 Y-1.68600
X3.65500 Y-1.68600
X3.65500 Y-1.68700
X3.65600 Y-1.68700
X3.65600 Y-1.68800
X3.65700 Y-1.68800
X3.65700 Y-1.68900
X3.65800 Y-1.68900
X3.65800 Y-1.69000
X3.65900 Y-1.69000
X3.65900 Y-1.69100
X3.66000 Y-1.69100
X3.66000 Y-1.69200
X3.66100 Y-1.69200
X3.66100 Y-1.69300
X3.66200 Y-1.69300
X3.66200 Y-1.69400
X3.66300 Y-1.69400
X3.66300 Y-1.69500
X3.66400 Y-1.69500
X3.66400 Y-1.69600
X3.66500 Y-1.69600
X3.66500 Y-1.69700
X3.66600 Y-1.69700
X3.66600 Y-1.69800
X3.66700 Y-1.69800
X3.66700 Y-1.69900
X3.66800 Y-1.69900
X3.66800 Y-1.70000
X3.66900 Y-1.70000
X3.66900 Y-1.70100
X3.67000 Y-1.70100
X3.67000 Y-1.70200
X3.67100 Y-1.70200
X3.67100 Y-1.70300
X3.67200 Y-1.70300
X3.67200 Y-1.70400
X3.67300 Y-1.70400
X3.67300 Y-1.70500
X3.67400 Y-1.70500
X3.67400 Y-1.70600
X3.67500 Y-1.70600
X3.67500 Y-1.70700
X3.67600 Y-1.70700
X3.67600 Y-1.70800
X3.67700 Y-1.70800
X3.67700 Y-1.70900
X3.67800 Y-1.70900
X3.67800 Y-1.71000
X3.67900 Y-1.71000
X3.67900 Y-1.71100
X3.68000 Y-1.71100
X3.68000 Y-1.71200
X3.68100 Y-1.71200
X3.68100 Y-1.71300
X3.68200 Y-1.71300
X3.68200 Y-1.71400
X3.68300 Y-1.71400
X3.68300 Y-1.71500
X3.68400 Y-1.71500
X3.68400 Y-1.71600
X3.68500 Y-1.71600
X3.68500 Y-1.71700
X3.68600 Y-1.71700
X3.68600 Y-1.71800
X3.68700 Y-1.71800
X3.68700 Y-1.71900
X3.68800 Y-1.71900
X3.68800 Y-1.72000
X3.68900 Y-1.72000
X3.68900 Y-1.72100
X3.69000 Y-1.72100
X3.69000 Y-1.72200
X3.69100 Y-1.72200
X3.69100 Y-1.72300
X3.69200 Y-1.72300
X3.69200 Y-1.72400
X3.69300 Y-1.72400
X3.69300 Y-1.72500
X3.69400 Y-1.72500
X3.69400 Y-1.72600
X3.69500 Y-1.72600
X3.69500 Y-1.72700
X3.69600 Y-1.72700
X3.69600 Y-1.72800
X3.69700 Y-1.72800
X3.69700 Y-1.72900
X3.69800 Y-1.72900
X3.69800 Y-1.73000
X3.69900 Y-1.73000
X3.69900 Y-1.73100
X3.70000 Y-1.73100
X3.70000 Y-1.73200
X3.70100 Y-1.73200
X3.70100 Y-1.73300
X3.70200 Y-1.73300
X3.70200 Y-1.73400
X3.70300 Y-1.73400
X3.70300 Y-1.73500
X3.70400 Y-1.73500
X3.70400 Y-1.73600
X3.70500 Y-1.73600
X3.70500 Y-1.73700
X3.70600 Y-1.73700
X3.70600 Y-1.73800
X3.70700 Y-1.73800
X3.70700 Y-1.73900
X3.70800 Y-1.73900
X3.70800 Y-1.74000
X3.70900 Y-1.74000
X3.70900 Y-1.74100
X3.71000 Y-1.74100
X3.71000 Y-1.74200
X3.71100 Y-1.74200
X3.71100 Y-1.74300
X3.71200 Y-1.74300
X3.71200 Y-1.74400
X3.71300 Y-1.74400
X3.71300 Y-1.74500
X3.71400 Y-1.74500
X3.71400 Y-1.74600
X3.71500 Y-1.74600
X3.71500 Y-1.74700
X3.71600 Y-1.74700
X3.71600 Y-1.74800
X3.71700 Y-1.74800
X3.71700 Y-1.74900
X3.71800 Y-1.74900
X3.71800 Y-1.75000
X3.71900 Y-1.75000
X3.71900 Y-1.75100
X3.72000 Y-1.75100
X3.72000 Y-1.75200
X3.72100 Y-1.75200
X3.72100 Y-1.75300
X3.72200 Y-1.75300
X3.72200 Y-1.75400
X3.72300 Y-1.75400
X3.72300 Y-1.75500
X3.72400 Y-1.75500
X3.72400 Y-1.75600
X3.72500 Y-1.75600
X3.72500 Y-1.75700
X3.72600 Y-1.75700
X3.72600 Y-1.75800
X3.72700 Y-1.75800
X3.72700 Y-1.75900
X3.72800 Y-1.75900
X3.72800 Y-1.76000
X3.72900 Y-1.76000
X3.72900 Y-1.76100
X3.73000 Y-1.76100
X3.73000 Y-1.76200
X3.73100 Y-1.76200
X3.73100 Y-1.76300
X3.73200 Y-1.76300
X3.73200 Y-1.76400
X3.73300 Y-1.76400
X3.73300 Y-1.76500
X3.73400 Y-1.76500
X3.73400 Y-1.76600
X3.73500 Y-1.76600
X3.73500 Y-1.76700
X3.73600 Y-1.76700
X3.73600 Y-1.76800
X3.73700 Y-1.76800
X3.73700 Y-1.76900
X3.73800 Y-1.76900
X3.73800 Y-1.77000
X3.73900 Y-1.77000
X3.73900 Y-1.77100
X3.74000 Y-1.77100
X3.74000 Y-1.77200
X3.74100 Y-1.77200
X3.74100 Y-1.77300
X3.74200 Y-1.77300
X3.74200 Y-1.77400
X3.74300 Y-1.77400
X3.74300 Y-1.77500
X3.74400 Y-1.77500
X3.74400 Y-1.77600
X3.74500 Y-1.77600
X3.74500 Y-1.77700
X3.74600 Y-1.77700
X3.74600 Y-1.77800
X3.74700 Y-1.77800
X3.74700 Y-1.77900
X3.74800 Y-1.77900
X3.74800 Y-1.78000
X3.74900 Y-1.78000
X3.74900 Y-1.78100
X3.75000 Y-1.78100
X3.75000 Y-1.78200
X3.75100 Y-1.78200
X3.75100 Y-1.78300
X3.75200 Y-1.78300
X3.75200 Y-1.78400
X3.75300 Y-1.78400
X3.75300 Y-1.78500
X3.75400 Y-1.78500
X3.75400 Y-1.78600
X3.75500 Y-1.78600
X3.75500 Y-1.78700
X3.75600 Y-1.78700
X3.75600 Y-1.78800
X3.75700 Y-1.78800
X3.75700 Y-1.78900
X3.75800 Y-1.78900
X3.75800 Y-1.79000
X3.75900 Y-1.79000
X3.75900 Y-1.79100
X3.76000 Y-1.79100
X3.76000 Y-1.79200
X3.76100 Y-1.79200
X3.76100 Y-1.79300
X3.76200 Y-1.79300
X3.76200 Y-1.79400
X3.76300 Y-1.79400
X3.76300 Y-1.79500
X3.76400 Y-1.79500
X3.76400 Y-1.79600
X3.76500 Y-1.79600
X3.76500 Y-1.79700
X3.76600 Y-1.79700
X3.76600 Y-1.79800
X3.76700 Y-1.79800
X3.76700 Y-1.79900
X3.76800 Y-1.79900
X3.76800 Y-1.80000
X3.76900 Y-1.80000
X3.76900 Y-1.80100
X3.77000 Y-1.80100
X3.77000 Y-1.80200
X3.77100 Y-1.80200
X3.77100 Y-1.80300
X3.77200 Y-1.80300
X3.77200 Y-1.80400
X3.77300 Y-1.80400
X3.77300 Y-1.80500
X3.77400 Y-1.80500
X3.77400 Y-1.80600
X3.77500 Y-1.80600
X3.77500 Y-1.80700
X3.77600 Y-1.80700
X3.77600 Y-1.80800
X3.77700 Y-1.80800
X3.77700 Y-1.80900
X3.77800 Y-1.80900
X3.77800 Y-1.81000
X3.77900 Y-1.81000
X3.77900 Y-1.81100
X3.78000 Y-1.81100
X3.78000 Y-1.81200
X3.78100 Y-1.81200
X3.78100 Y-1.81300
X3.78200 Y-1.81300
X3.78200 Y-1.81400
X3.78300 Y-1.81400
X3.78300 Y-1.81500
X3.78400 Y-1.81500
X3.78400 Y-1.81800
X3.78500 Y-1.81800
X3.78500 Y-2.28100
X3.78400 Y-2.28100
X3.78400 Y-2.28400
X3.78300 Y-2.28400
X3.78300 Y-2.28500
X3.78200 Y-2.28500
X3.78200 Y-2.28600
X3.78100 Y-2.28600
X3.78100 Y-2.28700
X3.78000 Y-2.28700
X3.78000 Y-2.28800
X3.77900 Y-2.28800
X3.77900 Y-2.28900
X3.77800 Y-2.28900
X3.77800 Y-2.29000
X3.77700 Y-2.29000
X3.77700 Y-2.29100
X3.77600 Y-2.29100
X3.77600 Y-2.29200
X3.77500 Y-2.29200
X3.77500 Y-2.29300
X3.77400 Y-2.29300
X3.77400 Y-2.29400
X3.77300 Y-2.29400
X3.77300 Y-2.29500
X3.77200 Y-2.29500
X3.77200 Y-2.29600
X3.77100 Y-2.29600
X3.77100 Y-2.29700
X3.77000 Y-2.29700
X3.77000 Y-2.29800
X3.76900 Y-2.29800
X3.76900 Y-2.29900
X3.76800 Y-2.29900
X3.76800 Y-2.30000
X3.76700 Y-2.30000
X3.76700 Y-2.30100
X3.76600 Y-2.30100
X3.76600 Y-2.30200
X3.76500 Y-2.30200
X3.76500 Y-2.30300
X3.76400 Y-2.30300
X3.76400 Y-2.30400
X3.76300 Y-2.30400
X3.76300 Y-2.30500
X3.76200 Y-2.30500
X3.76200 Y-2.30600
X3.76100 Y-2.30600
X3.76100 Y-2.30700
X3.76000 Y-2.30700
X3.76000 Y-2.30800
X3.75900 Y-2.30800
X3.75900 Y-2.30900
X3.75800 Y-2.30900
X3.75800 Y-2.31000
X3.75700 Y-2.31000
X3.75700 Y-2.31100
X3.75600 Y-2.31100
X3.75600 Y-2.31200
X3.75500 Y-2.31200
X3.75500 Y-2.31300
X3.75400 Y-2.31300
X3.75400 Y-2.31400
X3.75300 Y-2.31400
X3.75300 Y-2.31500
X3.75200 Y-2.31500
X3.75200 Y-2.31600
X3.75100 Y-2.31600
X3.75100 Y-2.31700
X3.75000 Y-2.31700
X3.75000 Y-2.31800
X3.74900 Y-2.31800
X3.74900 Y-2.31900
X3.74800 Y-2.31900
X3.74800 Y-2.32000
X3.74700 Y-2.32000
X3.74700 Y-2.32100
X3.74600 Y-2.32100
X3.74600 Y-2.32200
X3.74500 Y-2.32200
X3.74500 Y-2.32300
X3.74400 Y-2.32300
X3.74400 Y-2.32400
X3.74300 Y-2.32400
X3.74300 Y-2.32500
X3.74200 Y-2.32500
X3.74200 Y-2.32600
X3.74100 Y-2.32600
X3.74100 Y-2.32700
X3.74000 Y-2.32700
X3.74000 Y-2.32800
X3.73900 Y-2.32800
X3.73900 Y-2.32900
X3.73800 Y-2.32900
X3.73800 Y-2.33000
X3.73700 Y-2.33000
X3.73700 Y-2.33100
X3.73600 Y-2.33100
X3.73600 Y-2.33200
X3.73500 Y-2.33200
X3.73500 Y-2.33300
X3.73400 Y-2.33300
X3.73400 Y-2.33400
X3.73300 Y-2.33400
X3.73300 Y-2.33500
X3.73200 Y-2.33500
X3.73200 Y-2.33600
X3.73100 Y-2.33600
X3.73100 Y-2.33700
X3.73000 Y-2.33700
X3.73000 Y-2.33800
X3.72900 Y-2.33800
X3.72900 Y-2.33900
X3.72800 Y-2.33900
X3.72800 Y-2.34000
X3.72700 Y-2.34000
X3.72700 Y-2.34100
X3.72600 Y-2.34100
X3.72600 Y-2.34200
X3.72400 Y-2.34200
X3.72400 Y-2.34300
X3.64500 Y-2.34300
X3.64500 Y-2.34800
X3.61400 Y-2.34800
X3.61400 Y-2.32700
X3.64500 Y-2.32700
X3.64500 Y-2.33200
X3.71900 Y-2.33200
X3.71900 Y-2.33100
X3.72000 Y-2.33100
X3.72000 Y-2.33000
X3.72100 Y-2.33000
X3.72100 Y-2.32900
X3.72200 Y-2.32900
X3.72200 Y-2.32800
X3.72300 Y-2.32800
X3.72300 Y-2.32700
X3.72400 Y-2.32700
X3.72400 Y-2.32600
X3.72500 Y-2.32600
X3.72500 Y-2.32500
X3.72600 Y-2.32500
X3.72600 Y-2.32400
X3.72700 Y-2.32400
X3.72700 Y-2.32300
X3.72800 Y-2.32300
X3.72800 Y-2.32200
X3.72900 Y-2.32200
X3.72900 Y-2.32100
X3.73000 Y-2.32100
X3.73000 Y-2.32000
X3.73100 Y-2.32000
X3.73100 Y-2.31900
X3.73200 Y-2.31900
X3.73200 Y-2.31800
X3.73300 Y-2.31800
X3.73300 Y-2.31700
X3.73400 Y-2.31700
X3.73400 Y-2.31600
X3.73500 Y-2.31600
X3.73500 Y-2.31500
X3.73600 Y-2.31500
X3.73600 Y-2.31400
X3.73700 Y-2.31400
X3.73700 Y-2.31300
X3.73800 Y-2.31300
X3.73800 Y-2.31200
X3.73900 Y-2.31200
X3.73900 Y-2.31100
X3.74000 Y-2.31100
X3.74000 Y-2.31000
X3.74100 Y-2.31000
X3.74100 Y-2.30900
X3.74200 Y-2.30900
X3.74200 Y-2.30800
X3.74300 Y-2.30800
X3.74300 Y-2.30700
X3.74400 Y-2.30700
X3.74400 Y-2.30600
X3.74500 Y-2.30600
X3.74500 Y-2.30500
X3.74600 Y-2.30500
X3.74600 Y-2.30400
X3.74700 Y-2.30400
X3.74700 Y-2.30300
X3.74800 Y-2.30300
X3.74800 Y-2.30200
X3.74900 Y-2.30200
X3.74900 Y-2.30100
X3.75000 Y-2.30100
X3.75000 Y-2.30000
X3.75100 Y-2.30000
X3.75100 Y-2.29900
X3.75200 Y-2.29900
X3.75200 Y-2.29800
X3.75300 Y-2.29800
X3.75300 Y-2.29700
X3.75400 Y-2.29700
X3.75400 Y-2.29600
X3.75500 Y-2.29600
X3.75500 Y-2.29500
X3.75600 Y-2.29500
X3.75600 Y-2.29400
X3.75700 Y-2.29400
X3.75700 Y-2.29300
X3.75800 Y-2.29300
X3.75800 Y-2.29200
X3.75900 Y-2.29200
X3.75900 Y-2.29100
X3.76000 Y-2.29100
X3.76000 Y-2.29000
X3.76100 Y-2.29000
X3.76100 Y-2.28900
X3.76200 Y-2.28900
X3.76200 Y-2.28800
X3.76300 Y-2.28800
X3.76300 Y-2.28700
X3.76400 Y-2.28700
X3.76400 Y-2.28600
X3.76500 Y-2.28600
X3.76500 Y-2.28500
X3.76600 Y-2.28500
X3.76600 Y-2.28400
X3.76700 Y-2.28400
X3.76700 Y-2.28300
X3.76800 Y-2.28300
X3.76800 Y-2.28200
X3.76900 Y-2.28200
X3.76900 Y-2.28100
X3.77000 Y-2.28100
X3.77000 Y-2.28000
X3.77100 Y-2.28000
X3.77100 Y-2.27900
X3.77200 Y-2.27900
X3.77200 Y-2.27800
X3.77300 Y-2.27800
X3.77300 Y-2.27700
X3.77400 Y-2.27700
X3.77400 Y-1.82200
X3.77300 Y-1.82200
X3.77300 Y-1.82100
X3.77200 Y-1.82100
X3.77200 Y-1.82000
X3.77100 Y-1.82000
X3.77100 Y-1.81900
X3.77000 Y-1.81900
X3.77000 Y-1.81800
X3.76900 Y-1.81800
X3.76900 Y-1.81700
X3.76800 Y-1.81700
X3.76800 Y-1.81600
X3.76700 Y-1.81600
X3.76700 Y-1.81500
X3.76600 Y-1.81500
X3.76600 Y-1.81400
X3.76500 Y-1.81400
X3.76500 Y-1.81300
X3.76400 Y-1.81300
X3.76400 Y-1.81200
X3.76300 Y-1.81200
X3.76300 Y-1.81100
X3.76200 Y-1.81100
X3.76200 Y-1.81000
X3.76100 Y-1.81000
X3.76100 Y-1.80900
X3.76000 Y-1.80900
X3.76000 Y-1.80800
X3.75900 Y-1.80800
X3.75900 Y-1.80700
X3.75800 Y-1.80700
X3.75800 Y-1.80600
X3.75700 Y-1.80600
X3.75700 Y-1.80500
X3.75600 Y-1.80500
X3.75600 Y-1.80400
X3.75500 Y-1.80400
X3.75500 Y-1.80300
X3.75400 Y-1.80300
X3.75400 Y-1.80200
X3.75300 Y-1.80200
X3.75300 Y-1.80100
X3.75200 Y-1.80100
X3.75200 Y-1.80000
X3.75100 Y-1.80000
X3.75100 Y-1.79900
X3.75000 Y-1.79900
X3.75000 Y-1.79800
X3.74900 Y-1.79800
X3.74900 Y-1.79700
X3.74800 Y-1.79700
X3.74800 Y-1.79600
X3.74700 Y-1.79600
X3.74700 Y-1.79500
X3.74600 Y-1.79500
X3.74600 Y-1.79400
X3.74500 Y-1.79400
X3.74500 Y-1.79300
X3.74400 Y-1.79300
X3.74400 Y-1.79200
X3.74300 Y-1.79200
X3.74300 Y-1.79100
X3.74200 Y-1.79100
X3.74200 Y-1.79000
X3.74100 Y-1.79000
X3.74100 Y-1.78900
X3.74000 Y-1.78900
X3.74000 Y-1.78800
X3.73900 Y-1.78800
X3.73900 Y-1.78700
X3.73800 Y-1.78700
X3.73800 Y-1.78600
X3.73700 Y-1.78600
X3.73700 Y-1.78500
X3.73600 Y-1.78500
X3.73600 Y-1.78400
X3.73500 Y-1.78400
X3.73500 Y-1.78300
X3.73400 Y-1.78300
X3.73400 Y-1.78200
X3.73300 Y-1.78200
X3.73300 Y-1.78100
X3.73200 Y-1.78100
X3.73200 Y-1.78000
X3.73100 Y-1.78000
X3.73100 Y-1.77900
X3.73000 Y-1.77900
X3.73000 Y-1.77800
X3.72900 Y-1.77800
X3.72900 Y-1.77700
X3.72800 Y-1.77700
X3.72800 Y-1.77600
X3.72700 Y-1.77600
X3.72700 Y-1.77500
X3.72600 Y-1.77500
X3.72600 Y-1.77400
X3.72500 Y-1.77400
X3.72500 Y-1.77300
X3.72400 Y-1.77300
X3.72400 Y-1.77200
X3.72300 Y-1.77200
X3.72300 Y-1.77100
X3.72200 Y-1.77100
X3.72200 Y-1.77000
X3.72100 Y-1.77000
X3.72100 Y-1.76900
X3.72000 Y-1.76900
X3.72000 Y-1.76800
X3.71900 Y-1.76800
X3.71900 Y-1.76700
X3.71800 Y-1.76700
X3.71800 Y-1.76600
X3.71700 Y-1.76600
X3.71700 Y-1.76500
X3.71600 Y-1.76500
X3.71600 Y-1.76400
X3.71500 Y-1.76400
X3.71500 Y-1.76300
X3.71400 Y-1.76300
X3.71400 Y-1.76200
X3.71300 Y-1.76200
X3.71300 Y-1.76100
X3.71200 Y-1.76100
X3.71200 Y-1.76000
X3.71100 Y-1.76000
X3.71100 Y-1.75900
X3.71000 Y-1.75900
X3.71000 Y-1.75800
X3.70900 Y-1.75800
X3.70900 Y-1.75700
X3.70800 Y-1.75700
X3.70800 Y-1.75600
X3.70700 Y-1.75600
X3.70700 Y-1.75500
X3.70600 Y-1.75500
X3.70600 Y-1.75400
X3.70500 Y-1.75400
X3.70500 Y-1.75300
X3.70400 Y-1.75300
X3.70400 Y-1.75200
X3.70300 Y-1.75200
X3.70300 Y-1.75100
X3.70200 Y-1.75100
X3.70200 Y-1.75000
X3.70100 Y-1.75000
X3.70100 Y-1.74900
X3.70000 Y-1.74900
X3.70000 Y-1.74800
X3.69900 Y-1.74800
X3.69900 Y-1.74700
X3.69800 Y-1.74700
X3.69800 Y-1.74600
X3.69700 Y-1.74600
X3.69700 Y-1.74500
X3.69600 Y-1.74500
X3.69600 Y-1.74400
X3.69500 Y-1.74400
X3.69500 Y-1.74300
X3.69400 Y-1.74300
X3.69400 Y-1.74200
X3.69300 Y-1.74200
X3.69300 Y-1.74100
X3.69200 Y-1.74100
X3.69200 Y-1.74000
X3.69100 Y-1.74000
X3.69100 Y-1.73900
X3.69000 Y-1.73900
X3.69000 Y-1.73800
X3.68900 Y-1.73800
X3.68900 Y-1.73700
X3.68800 Y-1.73700
X3.68800 Y-1.73600
X3.68700 Y-1.73600
X3.68700 Y-1.73500
X3.68600 Y-1.73500
X3.68600 Y-1.73400
X3.68500 Y-1.73400
X3.68500 Y-1.73300
X3.68400 Y-1.73300
X3.68400 Y-1.73200
X3.68300 Y-1.73200
X3.68300 Y-1.73100
X3.68200 Y-1.73100
X3.68200 Y-1.73000
X3.68100 Y-1.73000
X3.68100 Y-1.72900
X3.68000 Y-1.72900
X3.68000 Y-1.72800
X3.67900 Y-1.72800
X3.67900 Y-1.72700
X3.67800 Y-1.72700
X3.67800 Y-1.72600
X3.67700 Y-1.72600
X3.67700 Y-1.72500
X3.67600 Y-1.72500
X3.67600 Y-1.72400
X3.67500 Y-1.72400
X3.67500 Y-1.72300
X3.67400 Y-1.72300
X3.67400 Y-1.72200
X3.67300 Y-1.72200
X3.67300 Y-1.72100
X3.67200 Y-1.72100
X3.67200 Y-1.72000
X3.67100 Y-1.72000
X3.67100 Y-1.71900
X3.67000 Y-1.71900
X3.67000 Y-1.71800
X3.66900 Y-1.71800
X3.66900 Y-1.71700
X3.66800 Y-1.71700
X3.66800 Y-1.71600
X3.66700 Y-1.71600
X3.66700 Y-1.71500
X3.66600 Y-1.71500
X3.66600 Y-1.71400
X3.66500 Y-1.71400
X3.66500 Y-1.71300
X3.66400 Y-1.71300
X3.66400 Y-1.71200
X3.66300 Y-1.71200
X3.66300 Y-1.71100
X3.66200 Y-1.71100
X3.66200 Y-1.71000
X3.66100 Y-1.71000
X3.66100 Y-1.70900
X3.66000 Y-1.70900
X3.66000 Y-1.70800
X3.65900 Y-1.70800
X3.65900 Y-1.70700
X3.65800 Y-1.70700
X3.65800 Y-1.70600
X3.65700 Y-1.70600
X3.65700 Y-1.70500
X3.65600 Y-1.70500
X3.65600 Y-1.70400
X3.65500 Y-1.70400
X3.65500 Y-1.70300
X3.65400 Y-1.70300
X3.65400 Y-1.70200
X3.65300 Y-1.70200
X3.65300 Y-1.70100
X3.65200 Y-1.70100
X3.65200 Y-1.70000
X3.65100 Y-1.70000
X3.65100 Y-1.69900
X3.65000 Y-1.69900
X3.65000 Y-1.69800
X3.64900 Y-1.69800
X3.64900 Y-1.69700
X3.64800 Y-1.69700
X3.64800 Y-1.69600
X3.64700 Y-1.69600
X3.64700 Y-1.69500
X3.64600 Y-1.69500
X3.64600 Y-1.69400
X3.64500 Y-1.69400
X3.64500 Y-1.69300
X3.64400 Y-1.69300
X3.64400 Y-1.69200
X3.64300 Y-1.69200
X3.64300 Y-1.69100
X3.64200 Y-1.69100
X3.64200 Y-1.69000
X3.64100 Y-1.69000
X3.64100 Y-1.68900
X3.64000 Y-1.68900
X3.64000 Y-1.68800
X3.63900 Y-1.68800
X3.63900 Y-1.68700
X3.63800 Y-1.68700
X3.63800 Y-1.68600
X3.63700 Y-1.68600
X3.63700 Y-1.68500
X1.98200 Y-1.68500
X1.98200 Y-1.68600
X1.98100 Y-1.68600
X1.98100 Y-1.68700
X1.98000 Y-1.68700
X1.98000 Y-1.68800
X1.97900 Y-1.68800
X1.97900 Y-1.68900
X1.97800 Y-1.68900
X1.97800 Y-1.69000
X1.97700 Y-1.69000
X1.97700 Y-1.69100
X1.97600 Y-1.69100
X1.97600 Y-1.69200
X1.97500 Y-1.69200
X1.97500 Y-1.69300
X1.97400 Y-1.69300
X1.97400 Y-1.69400
X1.97300 Y-1.69400
X1.97300 Y-1.69500
X1.97200 Y-1.69500
X1.97200 Y-1.69600
X1.97100 Y-1.69600
X1.97100 Y-1.69700
X1.97000 Y-1.69700
X1.97000 Y-1.69800
X1.96900 Y-1.69800
X1.96900 Y-1.69900
X1.96800 Y-1.69900
X1.96800 Y-1.70000
X1.96700 Y-1.70000
X1.96700 Y-1.70100
X1.96600 Y-1.70100
X1.96600 Y-1.70200
X1.96500 Y-1.70200
X1.96500 Y-1.70300
X1.96400 Y-1.70300
X1.96400 Y-1.70400
X1.96300 Y-1.70400
X1.96300 Y-1.70500
X1.96200 Y-1.70500
X1.96200 Y-1.70600
X1.96100 Y-1.70600
X1.96100 Y-1.70700
X1.96000 Y-1.70700
X1.96000 Y-1.70800
X1.95900 Y-1.70800
X1.95900 Y-1.70900
X1.95800 Y-1.70900
X1.95800 Y-1.71000
X1.95700 Y-1.71000
X1.95700 Y-1.71100
X1.95600 Y-1.71100
X1.95600 Y-1.71200
X1.95500 Y-1.71200
X1.95500 Y-1.71300
X1.95400 Y-1.71300
X1.95400 Y-1.71400
X1.95300 Y-1.71400
X1.95300 Y-1.71500
X1.95200 Y-1.71500
X1.95200 Y-1.71600
X1.95100 Y-1.71600
X1.95100 Y-1.71700
X1.95000 Y-1.71700
X1.95000 Y-1.71800
X1.94900 Y-1.71800
X1.94900 Y-1.71900
X1.94800 Y-1.71900
X1.94800 Y-1.72000
X1.94700 Y-1.72000
X1.94700 Y-1.72100
X1.94600 Y-1.72100
X1.94600 Y-1.72200
X1.94500 Y-1.72200
X1.94500 Y-1.72300
X1.94400 Y-1.72300
X1.94400 Y-1.72400
X1.94300 Y-1.72400
X1.94300 Y-1.72500
X1.94200 Y-1.72500
X1.94200 Y-1.72600
X1.94100 Y-1.72600
X1.94100 Y-1.72700
X1.94000 Y-1.72700
X1.94000 Y-1.72800
X1.93900 Y-1.72800
X1.93900 Y-1.72900
X1.93800 Y-1.72900
X1.93800 Y-1.73000
X1.93700 Y-1.73000
X1.93700 Y-1.73100
X1.93600 Y-1.73100
X1.93600 Y-1.73200
X1.93500 Y-1.73200
X1.93500 Y-1.73300
X1.93400 Y-1.73300
X1.93400 Y-1.73400
X1.93300 Y-1.73400
X1.93300 Y-1.73500
X1.93200 Y-1.73500
X1.93200 Y-1.73600
X1.93100 Y-1.73600
X1.93100 Y-1.73700
X1.93000 Y-1.73700
X1.93000 Y-1.73800
X1.92900 Y-1.73800
X1.92900 Y-1.73900
X1.92800 Y-1.73900
X1.92800 Y-1.74000
X1.92700 Y-1.74000
X1.92700 Y-1.74100
X1.92600 Y-1.74100
X1.92600 Y-1.74200
X1.92500 Y-1.74200
X1.92500 Y-1.74300
X1.92400 Y-1.74300
X1.92400 Y-1.74400
X1.92300 Y-1.74400
X1.92300 Y-1.74500
X1.92200 Y-1.74500
X1.92200 Y-1.74600
X1.92100 Y-1.74600
X1.92100 Y-1.74700
X1.92000 Y-1.74700
X1.92000 Y-1.74800
X1.91900 Y-1.74800
X1.91900 Y-1.74900
X1.91800 Y-1.74900
X1.91800 Y-1.75000
X1.91700 Y-1.75000
X1.91700 Y-1.75100
X1.91600 Y-1.75100
X1.91600 Y-1.75200
X1.91500 Y-1.75200
X1.91500 Y-1.75300
X1.91400 Y-1.75300
X1.91400 Y-1.75400
X1.91300 Y-1.75400
X1.91300 Y-1.75500
X1.91200 Y-1.75500
X1.91200 Y-1.75600
X1.91100 Y-1.75600
X1.91100 Y-1.75700
X1.91000 Y-1.75700
X1.91000 Y-1.75800
X1.90900 Y-1.75800
X1.90900 Y-1.75900
X1.90800 Y-1.75900
X1.90800 Y-1.76000
X1.90700 Y-1.76000
X1.90700 Y-1.76100
X1.90600 Y-1.76100
X1.90600 Y-1.76200
X1.90500 Y-1.76200
X1.90500 Y-1.76300
X1.90400 Y-1.76300
X1.90400 Y-1.76400
X1.90300 Y-1.76400
X1.90300 Y-1.76500
X1.90200 Y-1.76500
X1.90200 Y-1.76600
X1.90100 Y-1.76600
X1.90100 Y-1.76700
X1.90000 Y-1.76700
X1.90000 Y-1.76800
X1.89900 Y-1.76800
X1.89900 Y-1.76900
X1.89800 Y-1.76900
X1.89800 Y-1.77000
X1.89700 Y-1.77000
X1.89700 Y-1.77100
X1.89600 Y-1.77100
X1.89600 Y-1.77200
X1.89500 Y-1.77200
X1.89500 Y-1.77300
X1.89400 Y-1.77300
X1.89400 Y-1.77400
X1.89300 Y-1.77400
X1.89300 Y-1.77500
X1.89200 Y-1.77500
X1.89200 Y-1.77600
X1.89100 Y-1.77600
X1.89100 Y-1.77700
X1.89000 Y-1.77700
X1.89000 Y-1.77800
X1.88900 Y-1.77800
X1.88900 Y-1.77900
X1.88800 Y-1.77900
X1.88800 Y-1.78000
X1.88700 Y-1.78000
X1.88700 Y-1.78100
X1.88600 Y-1.78100
X1.88600 Y-1.78200
X1.88500 Y-1.78200
X1.88500 Y-1.78300
X1.88400 Y-1.78300
X1.88400 Y-1.78400
X1.88300 Y-1.78400
X1.88300 Y-1.78500
X1.88200 Y-1.78500
X1.88200 Y-1.78600
X1.88100 Y-1.78600
X1.88100 Y-1.78700
X1.88000 Y-1.78700
X1.88000 Y-1.78800
X1.87900 Y-1.78800
X1.87900 Y-1.78900
X1.87800 Y-1.78900
X1.87800 Y-1.79000
X1.87700 Y-1.79000
X1.87700 Y-1.79100
X1.87600 Y-1.79100
X1.87600 Y-1.79200
X1.87500 Y-1.79200
X1.87500 Y-1.79300
X1.87400 Y-1.79300
X1.87400 Y-1.79400
X1.87300 Y-1.79400
X1.87300 Y-1.79500
X1.87200 Y-1.79500
X1.87200 Y-1.79600
X1.87100 Y-1.79600
X1.87100 Y-1.79700
X1.87000 Y-1.79700
X1.87000 Y-1.79800
X1.86900 Y-1.79800
X1.86900 Y-1.79900
X1.86800 Y-1.79900
X1.86800 Y-1.80000
X1.86700 Y-1.80000
X1.86700 Y-1.80100
X1.86600 Y-1.80100
X1.86600 Y-1.80200
X1.86500 Y-1.80200
X1.86500 Y-1.80300
X1.86400 Y-1.80300
X1.86400 Y-1.80400
X1.86300 Y-1.80400
X1.86300 Y-1.80500
X1.86200 Y-1.80500
X1.86200 Y-1.80600
X1.86100 Y-1.80600
X1.86100 Y-1.80700
X1.86000 Y-1.80700
X1.86000 Y-1.80800
X1.85900 Y-1.80800
X1.85900 Y-1.80900
X1.85800 Y-1.80900
X1.85800 Y-1.81000
X1.85700 Y-1.81000
X1.85700 Y-1.81100
X1.85600 Y-1.81100
X1.85600 Y-1.81200
X1.85500 Y-1.81200
X1.85500 Y-1.81300
X1.85400 Y-1.81300
X1.85400 Y-1.81400
X1.85300 Y-1.81400
X1.85300 Y-1.81500
X1.85200 Y-1.81500
X1.85200 Y-1.81600
X1.85100 Y-1.81600
X1.85100 Y-1.81700
X1.85000 Y-1.81700
X1.85000 Y-1.81800
X1.84900 Y-1.81800
X1.84900 Y-1.81900
X1.84800 Y-1.81900
X1.84800 Y-1.82000
X1.84700 Y-1.82000
X1.84700 Y-1.82100
X1.84600 Y-1.82100
X1.84600 Y-1.82200
X1.84500 Y-1.82200
X1.84500 Y-1.82300
X1.84400 Y-1.82300
X1.84400 Y-1.82400
X1.84300 Y-1.82400
X1.84300 Y-1.82500
X1.84200 Y-1.82500
X1.84200 Y-1.82600
X1.84100 Y-1.82600
X1.84100 Y-1.82700
X1.84000 Y-1.82700
X1.84000 Y-1.82800
X1.83900 Y-1.82800
X1.83900 Y-1.82900
X1.83800 Y-1.82900
X1.83800 Y-1.83000
X1.83700 Y-1.83000
X1.83700 Y-1.83100
X1.83600 Y-1.83100
X1.83600 Y-1.83200
X1.83500 Y-1.83200
X1.83500 Y-1.83300
X1.83400 Y-1.83300
X1.83400 Y-1.83400
X1.83300 Y-1.83400
X1.83300 Y-1.83500
X1.83200 Y-1.83500
X1.83200 Y-1.83600
X1.83100 Y-1.83600
X1.83100 Y-1.83700
X1.83000 Y-1.83700
X1.83000 Y-1.83800
X1.82900 Y-1.83800
X1.82900 Y-1.83900
X1.82800 Y-1.83900
X1.82800 Y-1.84000
X1.82700 Y-1.84000
X1.82700 Y-1.84100
X1.82600 Y-1.84100
X1.82600 Y-1.84200
X1.82500 Y-1.84200
X1.82500 Y-1.84300
X1.82400 Y-1.84300
X1.82400 Y-1.84400
X1.82300 Y-1.84400
X1.82300 Y-1.84500
X1.82200 Y-1.84500
X1.82200 Y-1.84600
X1.82100 Y-1.84600
X1.82100 Y-1.84700
X1.82000 Y-1.84700
X1.82000 Y-1.84800
X1.81900 Y-1.84800
X1.81900 Y-1.84900
X1.81800 Y-1.84900
X1.81800 Y-1.85000
X1.81700 Y-1.85000
X1.81700 Y-1.85100
X1.81600 Y-1.85100
X1.81600 Y-1.85200
X1.81500 Y-1.85200
X1.81500 Y-1.85300
X1.81400 Y-1.85300
X1.81400 Y-1.85400
X1.81300 Y-1.85400
X1.81300 Y-1.85500
X1.81200 Y-1.85500
X1.81200 Y-1.85600
X1.81100 Y-1.85600
X1.81100 Y-1.85700
X1.81000 Y-1.85700
X1.81000 Y-1.85800
X1.80900 Y-1.85800
X1.80900 Y-1.85900
X1.80800 Y-1.85900
X1.80800 Y-1.86000
X1.80700 Y-1.86000
X1.80700 Y-1.86100
X1.80600 Y-1.86100
X1.80600 Y-1.86200
X1.80500 Y-1.86200
X1.80500 Y-1.86300
X1.80400 Y-1.86300
X1.80400 Y-1.86400
X1.80300 Y-1.86400
X1.80300 Y-1.86500
X1.80200 Y-1.86500
X1.80200 Y-1.86600
X1.80100 Y-1.86600
X1.80100 Y-1.86700
X1.80000 Y-1.86700
X1.80000 Y-1.86800
X1.79900 Y-1.86800
X1.79900 Y-1.86900
X1.79800 Y-1.86900
X1.79800 Y-1.87000
X1.79700 Y-1.87000
X1.79700 Y-1.87100
X1.79600 Y-1.87100
X1.79600 Y-1.87200
X1.79500 Y-1.87200
X1.79500 Y-1.87300
X1.79400 Y-1.87300
X1.79400 Y-1.87400
X1.79300 Y-1.87400
X1.79300 Y-1.87500
X1.79200 Y-1.87500
X1.79200 Y-1.87600
X1.79100 Y-1.87600
X1.79100 Y-1.87700
X1.79000 Y-1.87700
X1.79000 Y-1.87800
X1.78900 Y-1.87800
X1.78900 Y-1.87900
X1.78800 Y-1.87900
X1.78800 Y-1.88000
X1.78700 Y-1.88000
X1.78700 Y-1.88100
X1.78600 Y-1.88100
X1.78600 Y-1.88200
X1.78500 Y-1.88200
X1.78500 Y-1.88300
X1.78400 Y-1.88300
X1.78400 Y-1.88400
X1.78300 Y-1.88400
X1.78300 Y-1.88500
X1.78200 Y-1.88500
X1.78200 Y-1.88600
X1.78100 Y-1.88600
X1.78100 Y-1.88700
X1.78000 Y-1.88700
X1.78000 Y-1.88800
X1.77900 Y-1.88800
X1.77900 Y-1.88900
X1.77800 Y-1.88900
X1.77800 Y-1.89000
X1.77700 Y-1.89000
X1.77700 Y-1.89100
X1.77600 Y-1.89100
X1.77600 Y-1.89200
X1.77500 Y-1.89200
X1.77500 Y-1.89300
X1.77400 Y-1.89300
X1.77400 Y-1.89400
X1.77300 Y-1.89400
X1.77300 Y-1.89500
X1.77200 Y-1.89500
X1.77200 Y-1.89600
X1.77100 Y-1.89600
X1.77100 Y-1.89700
X1.77000 Y-1.89700
X1.77000 Y-1.89800
X1.76900 Y-1.89800
X1.76900 Y-1.89900
X1.76800 Y-1.89900
X1.76800 Y-1.90000
X1.76700 Y-1.90000
X1.76700 Y-1.90100
X1.76600 Y-1.90100
X1.76600 Y-1.90200
X1.76500 Y-1.90200
X1.76500 Y-2.04100
X1.79000 Y-2.04100
X1.79000 Y-2.10200
X1.76500 Y-2.10200
X1.76500 Y-2.18200
X1.76600 Y-2.18200
X1.76600 Y-2.18300
X1.76700 Y-2.18300
X1.76700 Y-2.18400
X1.76800 Y-2.18400
X1.76800 Y-2.18500
X1.76900 Y-2.18500
X1.76900 Y-2.18600
X1.77000 Y-2.18600
X1.77000 Y-2.18700
X1.77100 Y-2.18700
X1.77100 Y-2.18800
X1.77200 Y-2.18800
X1.77200 Y-2.18900
X1.77300 Y-2.18900
X1.77300 Y-2.19000
X1.77400 Y-2.19000
X1.77400 Y-2.19100
X1.77500 Y-2.19100
X1.77500 Y-2.19200
X1.77600 Y-2.19200
X1.77600 Y-2.19300
X1.77700 Y-2.19300
X1.77700 Y-2.19400
X1.77800 Y-2.19400
X1.77800 Y-2.19500
X1.77900 Y-2.19500
X1.77900 Y-2.19600
X1.78000 Y-2.19600
X1.78000 Y-2.19700
X1.78100 Y-2.19700
X1.78100 Y-2.19800
X1.78200 Y-2.19800
X1.78200 Y-2.19900
X1.78300 Y-2.19900
X1.78300 Y-2.20000
X1.78400 Y-2.20000
X1.78400 Y-2.20100
X1.78500 Y-2.20100
X1.78500 Y-2.20200
X1.78600 Y-2.20200
X1.78600 Y-2.20300
X1.78700 Y-2.20300
X1.78700 Y-2.20400
X1.78800 Y-2.20400
X1.78800 Y-2.20500
X1.78900 Y-2.20500
X1.78900 Y-2.20600
X1.79000 Y-2.20600
X1.79000 Y-2.20700
X1.79100 Y-2.20700
X1.79100 Y-2.20800
X1.79200 Y-2.20800
X1.79200 Y-2.20900
X1.79300 Y-2.20900
X1.79300 Y-2.21000
X1.79400 Y-2.21000
X1.79400 Y-2.21100
X1.79500 Y-2.21100
X1.79500 Y-2.21200
X1.79600 Y-2.21200
X1.79600 Y-2.21300
X1.79700 Y-2.21300
X1.79700 Y-2.21400
X1.79800 Y-2.21400
X1.79800 Y-2.21500
X1.79900 Y-2.21500
X1.79900 Y-2.21600
X1.80000 Y-2.21600
X1.80000 Y-2.21700
X1.80100 Y-2.21700
X1.80100 Y-2.21800
X1.80200 Y-2.21800
X1.80200 Y-2.21900
X1.84400 Y-2.21900
X1.84400 Y-2.19700
X1.87900 Y-2.19700
X1.87900 Y-2.25200
X1.86700 Y-2.25200
X1.86700 Y-2.28600
X1.86900 Y-2.28600
X1.86900 Y-2.28500
X1.88000 Y-2.28500
X1.88000 Y-2.28600
X1.88600 Y-2.28600
X1.88600 Y-2.28700
X1.89000 Y-2.28700
X1.89000 Y-2.28800
X1.89200 Y-2.28800
X1.89200 Y-2.28900
X1.89400 Y-2.28900
X1.89400 Y-2.29000
X1.89500 Y-2.29000
X1.89500 Y-2.29100
X1.89700 Y-2.29100
X1.89700 Y-2.29200
X1.89900 Y-2.29200
X1.89900 Y-2.29300
X1.90000 Y-2.29300
X1.90000 Y-2.29400
X1.90200 Y-2.29400
X1.90200 Y-2.29500
X1.90300 Y-2.29500
X1.90300 Y-2.29600
X1.90400 Y-2.29600
X1.90400 Y-2.29700
X1.90500 Y-2.29700
X1.90500 Y-2.29800
X1.90600 Y-2.29800
X1.90600 Y-2.29900
X1.90700 Y-2.29900
X1.90700 Y-2.30100
X1.90800 Y-2.30100
X1.90800 Y-2.30200
X1.90900 Y-2.30200
X1.90900 Y-2.30400
X1.91000 Y-2.30400
X1.91000 Y-2.30600
X1.91100 Y-2.30600
X1.91100 Y-2.30800
X1.91200 Y-2.30800
X1.91200 Y-2.31200
X1.91300 Y-2.31200
X1.91300 Y-2.31500
X1.91400 Y-2.31500
X1.91400 Y-2.33400
X1.91300 Y-2.33400
X1.91300 Y-2.33700
X1.91200 Y-2.33700
X1.91200 Y-2.34100
X1.91100 Y-2.34100
X1.91100 Y-2.34300
X1.91000 Y-2.34300
X1.91000 Y-2.34500
X1.90900 Y-2.34500
X1.90900 Y-2.34700
X1.90800 Y-2.34700
X1.90800 Y-2.34800
X1.90700 Y-2.34800
X1.90700 Y-2.35000
X1.90600 Y-2.35000
X1.90600 Y-2.35100
X1.90500 Y-2.35100
X1.90500 Y-2.35200
X1.90400 Y-2.35200
X1.90400 Y-2.35300
X1.90300 Y-2.35300
X1.90300 Y-2.35400
X1.90200 Y-2.35400
X1.90200 Y-2.35500
X1.90000 Y-2.35500
X1.90000 Y-2.35600
X1.89900 Y-2.35600
X1.89900 Y-2.35700
X1.89700 Y-2.35700
X1.89700 Y-2.35800
X1.89500 Y-2.35800
X1.89500 Y-2.35900
X1.89400 Y-2.35900
X1.89400 Y-2.36000
X1.89200 Y-2.36000
X1.89200 Y-2.36100
X1.89000 Y-2.36100
X1.89000 Y-2.36200
X1.88600 Y-2.36200
X1.88600 Y-2.36300
X1.88000 Y-2.36300
X1.88000 Y-2.36400
X1.86900 Y-2.36400
X1.86900 Y-2.36300
X1.86300 Y-2.36300
X1.86300 Y-2.36200
X1.85900 Y-2.36200
X1.85900 Y-2.36100
X1.85700 Y-2.36100
X1.85700 Y-2.36000
X1.85500 Y-2.36000
X1.85500 Y-2.35900
X1.85400 Y-2.35900
X1.85400 Y-2.35800
X1.85200 Y-2.35800
X1.85200 Y-2.35700
X1.85000 Y-2.35700
X1.85000 Y-2.35600
X1.84900 Y-2.35600
X1.84900 Y-2.35500
X1.84700 Y-2.35500
X1.84700 Y-2.35400
X1.84600 Y-2.35400
X1.84600 Y-2.35300
X1.84500 Y-2.35300
X1.84500 Y-2.35200
X1.84400 Y-2.35200
X1.84400 Y-2.35100
X1.84300 Y-2.35100
X1.84300 Y-2.35000
X1.84200 Y-2.35000
X1.84200 Y-2.34800
X1.84100 Y-2.34800
X1.84100 Y-2.34700
X1.84000 Y-2.34700
X1.84000 Y-2.34500
X1.83900 Y-2.34500
X1.83900 Y-2.34300
X1.83800 Y-2.34300
X1.83800 Y-2.34100
X1.83700 Y-2.34100
X1.83700 Y-2.33700
X1.83600 Y-2.33700
X1.83600 Y-2.33400
X1.83500 Y-2.33400
X1.83500 Y-2.31500
X1.83600 Y-2.31500
X1.83600 Y-2.31200
X1.83700 Y-2.31200
X1.83700 Y-2.30800
X1.83800 Y-2.30800
X1.83800 Y-2.30600
X1.83900 Y-2.30600
X1.83900 Y-2.30400
X1.84000 Y-2.30400
X1.84000 Y-2.30200
X1.84100 Y-2.30200
X1.84100 Y-2.30100
X1.84200 Y-2.30100
X1.84200 Y-2.29900
X1.84300 Y-2.29900
X1.84300 Y-2.29800
X1.84400 Y-2.29800
X1.84400 Y-2.29700
X1.84500 Y-2.29700
X1.84500 Y-2.29600
X1.84600 Y-2.29600
X1.84600 Y-2.29500
X1.84700 Y-2.29500
X1.84700 Y-2.29400
X1.84900 Y-2.29400
X1.84900 Y-2.29300
X1.85000 Y-2.29300
X1.85000 Y-2.29200
X1.85200 Y-2.29200
X1.85200 Y-2.29100
X1.85400 Y-2.29100
X1.85400 Y-2.29000
X1.85500 Y-2.29000
X1.85500 Y-2.28900
X1.85600 Y-2.28900
X1.85600 Y-2.25200
X1.84400 Y-2.25200
X1.84400 Y-2.23000
X1.79700 Y-2.23000
X1.79700 Y-2.22900
X1.79500 Y-2.22900
X1.79500 Y-2.22800
X1.79400 Y-2.22800
X1.79400 Y-2.22700
X1.79300 Y-2.22700
X1.79300 Y-2.22600
X1.79200 Y-2.22600
X1.79200 Y-2.22500
X1.79100 Y-2.22500
X1.79100 Y-2.22400
X1.79000 Y-2.22400
X1.79000 Y-2.22300
X1.78900 Y-2.22300
X1.78900 Y-2.22200
X1.78800 Y-2.22200
X1.78800 Y-2.22100
X1.78700 Y-2.22100
X1.78700 Y-2.22000
X1.78600 Y-2.22000
X1.78600 Y-2.21900
X1.78500 Y-2.21900
X1.78500 Y-2.21800
X1.78400 Y-2.21800
X1.78400 Y-2.21700
X1.78300 Y-2.21700
X1.78300 Y-2.21600
X1.78200 Y-2.21600
X1.78200 Y-2.21500
X1.78100 Y-2.21500
X1.78100 Y-2.21400
X1.78000 Y-2.21400
X1.78000 Y-2.21300
X1.77900 Y-2.21300
X1.77900 Y-2.21200
X1.77800 Y-2.21200
X1.77800 Y-2.21100
X1.77700 Y-2.21100
X1.77700 Y-2.21000
X1.77600 Y-2.21000
X1.77600 Y-2.20900
X1.77500 Y-2.20900
X1.77500 Y-2.20800
X1.77400 Y-2.20800
X1.77400 Y-2.20700
X1.77300 Y-2.20700
X1.77300 Y-2.20600
X1.77200 Y-2.20600
X1.77200 Y-2.20500
X1.77100 Y-2.20500
X1.77100 Y-2.20400
X1.77000 Y-2.20400
X1.77000 Y-2.20300
X1.76900 Y-2.20300
X1.76900 Y-2.20200
X1.76800 Y-2.20200
X1.76800 Y-2.20100
X1.76700 Y-2.20100
X1.76700 Y-2.20000
X1.76600 Y-2.20000
X1.76600 Y-2.19900
X1.76500 Y-2.19900
X1.76500 Y-2.19800
X1.76400 Y-2.19800
X1.76400 Y-2.19700
X1.76300 Y-2.19700
X1.76300 Y-2.19600
X1.76200 Y-2.19600
X1.76200 Y-2.19500
X1.76100 Y-2.19500
X1.76100 Y-2.19400
X1.76000 Y-2.19400
X1.76000 Y-2.19300
X1.75900 Y-2.19300
X1.75900 Y-2.19200
X1.75800 Y-2.19200
X1.75800 Y-2.19100
X1.75700 Y-2.19100
X1.75700 Y-2.19000
X1.75600 Y-2.19000
X1.75600 Y-2.18900
X1.75500 Y-2.18900
X1.75500 Y-2.18600
X1.75400 Y-2.18600
X1.75400 Y-2.10200
X1.72900 Y-2.10200
X1.72900 Y-2.04100
X1.75400 Y-2.04100
X1.75400 Y-1.89800
X1.75500 Y-1.89800
X1.75500 Y-1.89500
X1.75600 Y-1.89500
X1.75600 Y-1.89400
X1.75700 Y-1.89400
X1.75700 Y-1.89300
X1.75800 Y-1.89300
X1.75800 Y-1.89200
X1.75900 Y-1.89200
X1.75900 Y-1.89100
X1.76000 Y-1.89100
X1.76000 Y-1.89000
X1.76100 Y-1.89000
X1.76100 Y-1.88900
X1.76200 Y-1.88900
X1.76200 Y-1.88800
X1.76300 Y-1.88800
X1.76300 Y-1.88700
X1.76400 Y-1.88700
X1.76400 Y-1.88600
X1.76500 Y-1.88600
X1.76500 Y-1.88500
X1.76600 Y-1.88500
X1.76600 Y-1.88400
X1.76700 Y-1.88400
X1.76700 Y-1.88300
X1.76800 Y-1.88300
X1.76800 Y-1.88200
X1.76900 Y-1.88200
X1.76900 Y-1.88100
X1.77000 Y-1.88100
X1.77000 Y-1.88000
X1.77100 Y-1.88000
X1.77100 Y-1.87900
X1.77200 Y-1.87900
X1.77200 Y-1.87800
X1.77300 Y-1.87800
X1.77300 Y-1.87700
X1.77400 Y-1.87700
X1.77400 Y-1.87600
X1.77500 Y-1.87600
X1.77500 Y-1.87500
X1.77600 Y-1.87500
X1.77600 Y-1.87400
X1.77700 Y-1.87400
X1.77700 Y-1.87300
X1.77800 Y-1.87300
X1.77800 Y-1.87200
X1.77900 Y-1.87200
X1.77900 Y-1.87100
X1.78000 Y-1.87100
X1.78000 Y-1.87000
X1.78100 Y-1.87000
X1.78100 Y-1.86900
X1.78200 Y-1.86900
X1.78200 Y-1.86800
X1.78300 Y-1.86800
X1.78300 Y-1.86700
X1.78400 Y-1.86700
X1.78400 Y-1.86600
X1.78500 Y-1.86600
X1.78500 Y-1.86500
X1.78600 Y-1.86500
X1.78600 Y-1.86400
X1.78700 Y-1.86400
X1.78700 Y-1.86300
X1.78800 Y-1.86300
X1.78800 Y-1.86200
X1.78900 Y-1.86200
X1.78900 Y-1.86100
X1.79000 Y-1.86100
X1.79000 Y-1.86000
X1.79100 Y-1.86000
X1.79100 Y-1.85900
X1.79200 Y-1.85900
X1.79200 Y-1.85800
X1.79300 Y-1.85800
X1.79300 Y-1.85700
X1.79400 Y-1.85700
X1.79400 Y-1.85600
X1.79500 Y-1.85600
X1.79500 Y-1.85500
X1.79600 Y-1.85500
X1.79600 Y-1.85400
X1.79700 Y-1.85400
X1.79700 Y-1.85300
X1.79800 Y-1.85300
X1.79800 Y-1.85200
X1.79900 Y-1.85200
X1.79900 Y-1.85100
X1.80000 Y-1.85100
X1.80000 Y-1.85000
X1.80100 Y-1.85000
X1.80100 Y-1.84900
X1.80200 Y-1.84900
X1.80200 Y-1.84800
X1.80300 Y-1.84800
X1.80300 Y-1.84700
X1.80400 Y-1.84700
X1.80400 Y-1.84600
X1.80500 Y-1.84600
X1.80500 Y-1.84500
X1.80600 Y-1.84500
X1.80600 Y-1.84400
X1.80700 Y-1.84400
X1.80700 Y-1.84300
X1.80800 Y-1.84300
X1.80800 Y-1.84200
X1.80900 Y-1.84200
X1.80900 Y-1.84100
X1.81000 Y-1.84100
X1.81000 Y-1.84000
X1.81100 Y-1.84000
X1.81100 Y-1.83900
X1.81200 Y-1.83900
X1.81200 Y-1.83800
X1.81300 Y-1.83800
X1.81300 Y-1.83700
X1.81400 Y-1.83700
X1.81400 Y-1.83600
X1.81500 Y-1.83600
X1.81500 Y-1.83500
X1.81600 Y-1.83500
X1.81600 Y-1.83400
X1.81700 Y-1.83400
X1.81700 Y-1.83300
X1.81800 Y-1.83300
X1.81800 Y-1.83200
X1.81900 Y-1.83200
X1.81900 Y-1.83100
X1.82000 Y-1.83100
X1.82000 Y-1.83000
X1.82100 Y-1.83000
X1.82100 Y-1.82900
X1.82200 Y-1.82900
X1.82200 Y-1.82800
X1.82300 Y-1.82800
X1.82300 Y-1.82700
X1.82400 Y-1.82700
X1.82400 Y-1.82600
X1.82500 Y-1.82600
X1.82500 Y-1.82500
X1.82600 Y-1.82500
X1.82600 Y-1.82400
X1.82700 Y-1.82400
X1.82700 Y-1.82300
X1.82800 Y-1.82300
X1.82800 Y-1.82200
X1.82900 Y-1.82200
X1.82900 Y-1.82100
X1.83000 Y-1.82100
X1.83000 Y-1.82000
X1.83100 Y-1.82000
X1.83100 Y-1.81900
X1.83200 Y-1.81900
X1.83200 Y-1.81800
X1.83300 Y-1.81800
X1.83300 Y-1.81700
X1.83400 Y-1.81700
X1.83400 Y-1.81600
X1.83500 Y-1.81600
X1.83500 Y-1.81500
X1.83600 Y-1.81500
X1.83600 Y-1.81400
X1.83700 Y-1.81400
X1.83700 Y-1.81300
X1.83800 Y-1.81300
X1.83800 Y-1.81200
X1.83900 Y-1.81200
X1.83900 Y-1.81100
X1.84000 Y-1.81100
X1.84000 Y-1.81000
X1.84100 Y-1.81000
X1.84100 Y-1.80900
X1.84200 Y-1.80900
X1.84200 Y-1.80800
X1.84300 Y-1.80800
X1.84300 Y-1.80700
X1.84400 Y-1.80700
X1.84400 Y-1.80600
X1.84500 Y-1.80600
X1.84500 Y-1.80500
X1.84600 Y-1.80500
X1.84600 Y-1.80400
X1.84700 Y-1.80400
X1.84700 Y-1.80300
X1.84800 Y-1.80300
X1.84800 Y-1.80200
X1.84900 Y-1.80200
X1.84900 Y-1.80100
X1.85000 Y-1.80100
X1.85000 Y-1.80000
X1.85100 Y-1.80000
X1.85100 Y-1.79900
X1.85200 Y-1.79900
X1.85200 Y-1.79800
X1.85300 Y-1.79800
X1.85300 Y-1.79700
X1.85400 Y-1.79700
X1.85400 Y-1.79600
X1.85500 Y-1.79600
X1.85500 Y-1.79500
X1.85600 Y-1.79500
X1.85600 Y-1.79400
X1.85700 Y-1.79400
X1.85700 Y-1.79300
X1.85800 Y-1.79300
X1.85800 Y-1.79200
X1.85900 Y-1.79200
X1.85900 Y-1.79100
X1.86000 Y-1.79100
X1.86000 Y-1.79000
X1.86100 Y-1.79000
X1.86100 Y-1.78900
X1.86200 Y-1.78900
X1.86200 Y-1.78800
X1.86300 Y-1.78800
X1.86300 Y-1.78700
X1.86400 Y-1.78700
X1.86400 Y-1.78600
X1.86500 Y-1.78600
X1.86500 Y-1.78500
X1.86600 Y-1.78500
X1.86600 Y-1.78400
X1.86700 Y-1.78400
X1.86700 Y-1.78300
X1.86800 Y-1.78300
X1.86800 Y-1.78200
X1.86900 Y-1.78200
X1.86900 Y-1.78100
X1.87000 Y-1.78100
X1.87000 Y-1.78000
X1.87100 Y-1.78000
X1.87100 Y-1.77900
X1.87200 Y-1.77900
X1.87200 Y-1.77800
X1.87300 Y-1.77800
X1.87300 Y-1.77700
X1.87400 Y-1.77700
X1.87400 Y-1.77600
X1.87500 Y-1.77600
X1.87500 Y-1.77500
X1.87600 Y-1.77500
X1.87600 Y-1.77400
X1.87700 Y-1.77400
X1.87700 Y-1.77300
X1.87800 Y-1.77300
X1.87800 Y-1.77200
X1.87900 Y-1.77200
X1.87900 Y-1.77100
X1.88000 Y-1.77100
X1.88000 Y-1.77000
X1.88100 Y-1.77000
X1.88100 Y-1.76900
X1.88200 Y-1.76900
X1.88200 Y-1.76800
X1.88300 Y-1.76800
X1.88300 Y-1.76700
X1.88400 Y-1.76700
X1.88400 Y-1.76600
X1.88500 Y-1.76600
X1.88500 Y-1.76500
X1.88600 Y-1.76500
X1.88600 Y-1.76400
X1.88700 Y-1.76400
X1.88700 Y-1.76300
X1.88800 Y-1.76300
X1.88800 Y-1.76200
X1.88900 Y-1.76200
X1.88900 Y-1.76100
X1.89000 Y-1.76100
X1.89000 Y-1.76000
X1.89100 Y-1.76000
X1.89100 Y-1.75900
X1.89200 Y-1.75900
X1.89200 Y-1.75800
X1.89300 Y-1.75800
X1.89300 Y-1.75700
X1.89400 Y-1.75700
X1.89400 Y-1.75600
X1.89500 Y-1.75600
X1.89500 Y-1.75500
X1.89600 Y-1.75500
X1.89600 Y-1.75400
X1.89700 Y-1.75400
X1.89700 Y-1.75300
X1.89800 Y-1.75300
X1.89800 Y-1.75200
X1.89900 Y-1.75200
X1.89900 Y-1.75100
X1.90000 Y-1.75100
X1.90000 Y-1.75000
X1.90100 Y-1.75000
X1.90100 Y-1.74900
X1.90200 Y-1.74900
X1.90200 Y-1.74800
X1.90300 Y-1.74800
X1.90300 Y-1.74700
X1.90400 Y-1.74700
X1.90400 Y-1.74600
X1.90500 Y-1.74600
X1.90500 Y-1.74500
X1.90600 Y-1.74500
X1.90600 Y-1.74400
X1.90700 Y-1.74400
X1.90700 Y-1.74300
X1.90800 Y-1.74300
X1.90800 Y-1.74200
X1.90900 Y-1.74200
X1.90900 Y-1.74100
X1.91000 Y-1.74100
X1.91000 Y-1.74000
X1.91100 Y-1.74000
X1.91100 Y-1.73900
X1.91200 Y-1.73900
X1.91200 Y-1.73800
X1.91300 Y-1.73800
X1.91300 Y-1.73700
X1.91400 Y-1.73700
X1.91400 Y-1.73600
X1.91500 Y-1.73600
X1.91500 Y-1.73500
X1.91600 Y-1.73500
X1.91600 Y-1.73400
X1.91700 Y-1.73400
X1.91700 Y-1.73300
X1.91800 Y-1.73300
X1.91800 Y-1.73200
X1.91900 Y-1.73200
X1.91900 Y-1.73100
X1.92000 Y-1.73100
X1.92000 Y-1.73000
X1.92100 Y-1.73000
X1.92100 Y-1.72900
X1.92200 Y-1.72900
X1.92200 Y-1.72800
X1.92300 Y-1.72800
X1.92300 Y-1.72700
X1.92400 Y-1.72700
X1.92400 Y-1.72600
X1.92500 Y-1.72600
X1.92500 Y-1.72500
X1.92600 Y-1.72500
X1.92600 Y-1.72400
X1.92700 Y-1.72400
X1.92700 Y-1.72300
X1.92800 Y-1.72300
X1.92800 Y-1.72200
X1.92900 Y-1.72200
X1.92900 Y-1.72100
X1.93000 Y-1.72100
X1.93000 Y-1.72000
X1.93100 Y-1.72000
X1.93100 Y-1.71900
X1.93200 Y-1.71900
X1.93200 Y-1.71800
X1.93300 Y-1.71800
X1.93300 Y-1.71700
X1.93400 Y-1.71700
X1.93400 Y-1.71600
X1.93500 Y-1.71600
X1.93500 Y-1.71500
X1.93600 Y-1.71500
X1.93600 Y-1.71400
X1.93700 Y-1.71400
X1.93700 Y-1.71300
X1.93800 Y-1.71300
X1.93800 Y-1.71200
X1.93900 Y-1.71200
X1.93900 Y-1.71100
X1.94000 Y-1.71100
X1.94000 Y-1.71000
X1.94100 Y-1.71000
X1.94100 Y-1.70900
X1.94200 Y-1.70900
X1.94200 Y-1.70800
X1.94300 Y-1.70800
X1.94300 Y-1.70700
X1.94400 Y-1.70700
X1.94400 Y-1.70600
X1.94500 Y-1.70600
X1.94500 Y-1.70500
X1.94600 Y-1.70500
X1.94600 Y-1.70400
X1.94700 Y-1.70400
X1.94700 Y-1.70300
X1.94800 Y-1.70300
X1.94800 Y-1.70200
X1.94900 Y-1.70200
X1.94900 Y-1.70100
X1.95000 Y-1.70100
X1.95000 Y-1.70000
X1.95100 Y-1.70000
X1.95100 Y-1.69900
X1.95200 Y-1.69900
X1.95200 Y-1.69800
X1.95300 Y-1.69800
X1.95300 Y-1.69700
X1.95400 Y-1.69700
X1.95400 Y-1.69600
X1.95500 Y-1.69600
X1.95500 Y-1.69500
X1.95600 Y-1.69500
X1.95600 Y-1.69400
X1.95700 Y-1.69400
X1.95700 Y-1.69300
X1.95800 Y-1.69300
X1.95800 Y-1.69200
X1.95900 Y-1.69200
X1.95900 Y-1.69100
X1.96000 Y-1.69100
X1.96000 Y-1.69000
X1.96100 Y-1.69000
X1.96100 Y-1.68900
X1.96200 Y-1.68900
X1.96200 Y-1.68800
X1.96300 Y-1.68800
X1.96300 Y-1.68700
X1.96400 Y-1.68700
X1.96400 Y-1.68600
X1.96500 Y-1.68600
X1.96500 Y-1.68500
X1.96600 Y-1.68500
X1.96600 Y-1.68400
X1.96700 Y-1.68400
X1.96700 Y-1.68300
X1.96800 Y-1.68300
X1.96800 Y-1.68200
X1.96900 Y-1.68200
X1.96900 Y-1.68100
X1.97000 Y-1.68100
X1.97000 Y-1.68000
X1.97100 Y-1.68000
X1.97100 Y-1.67900
X1.97200 Y-1.67900
X1.97200 Y-1.67800
X1.97300 Y-1.67800
X1.97300 Y-1.67700
X1.97400 Y-1.67700
X1.97400 Y-1.67600
X1.97500 Y-1.67600
X1.97500 Y-1.67500
X1.97700 Y-1.67500
X1.97700 Y-1.67400
X3.64200 Y-1.67400
X3.64200 Y-1.67500
G04 P0 ( dwell for no time -- G64 should not smooth over this point )
G00 Z0.08000 ( retract )

G00 X3.62900 Y-1.70500 ( rapid move to begin. )
G01 Z-0.00800 F6.00000 ( plunge. )
G04 P0 ( dwell for no time -- G64 should not smooth over this point )
X3.62900 Y-1.70500
X3.63100 Y-1.70500
X3.63100 Y-1.70600
X3.63200 Y-1.70600
X3.63200 Y-1.70700
X3.63300 Y-1.70700
X3.63300 Y-1.70800
X3.63400 Y-1.70800
X3.63400 Y-1.70900
X3.63500 Y-1.70900
X3.63500 Y-1.71000
X3.63600 Y-1.71000
X3.63600 Y-1.71100
X3.63700 Y-1.71100
X3.63700 Y-1.71200
X3.63800 Y-1.71200
X3.63800 Y-1.71300
X3.63900 Y-1.71300
X3.63900 Y-1.71400
X3.64000 Y-1.71400
X3.64000 Y-1.71500
X3.64100 Y-1.71500
X3.64100 Y-1.71600
X3.64200 Y-1.71600
X3.64200 Y-1.71700
X3.64300 Y-1.71700
X3.64300 Y-1.71800
X3.64400 Y-1.71800
X3.64400 Y-1.71900
X3.64500 Y-1.71900
X3.64500 Y-1.72000
X3.64600 Y-1.72000
X3.64600 Y-1.72100
X3.64700 Y-1.72100
X3.64700 Y-1.72200
X3.64800 Y-1.72200
X3.64800 Y-1.72300
X3.64900 Y-1.72300
X3.64900 Y-1.72400
X3.65000 Y-1.72400
X3.65000 Y-1.72500
X3.65100 Y-1.72500
X3.65100 Y-1.72600
X3.65200 Y-1.72600
X3.65200 Y-1.72700
X3.65300 Y-1.72700
X3.65300 Y-1.72800
X3.65400 Y-1.72800
X3.65400 Y-1.72900
X3.65500 Y-1.72900
X3.65500 Y-1.73000
X3.65600 Y-1.73000
X3.65600 Y-1.73100
X3.65700 Y-1.73100
X3.65700 Y-1.73200
X3.65800 Y-1.73200
X3.65800 Y-1.73300
X3.65900 Y-1.73300
X3.65900 Y-1.73400
X3.66000 Y-1.73400
X3.66000 Y-1.73500
X3.66100 Y-1.73500
X3.66100 Y-1.73600
X3.66200 Y-1.73600
X3.66200 Y-1.73700
X3.66300 Y-1.73700
X3.66300 Y-1.73800
X3.66400 Y-1.73800
X3.66400 Y-1.73900
X3.66500 Y-1.73900
X3.66500 Y-1.74000
X3.66600 Y-1.74000
X3.66600 Y-1.74100
X3.66700 Y-1.74100
X3.66700 Y-1.74200
X3.66800 Y-1.74200
X3.66800 Y-1.74300
X3.66900 Y-1.74300
X3.66900 Y-1.74400
X3.67000 Y-1.74400
X3.67000 Y-1.74500
X3.67100 Y-1.74500
X3.67100 Y-1.74600
X3.67200 Y-1.74600
X3.67200 Y-1.74700
X3.67300 Y-1.74700
X3.67300 Y-1.74800
X3.67400 Y-1.74800
X3.67400 Y-1.74900
X3.67500 Y-1.74900
X3.67500 Y-1.75000
X3.67600 Y-1.75000
X3.67600 Y-1.75100
X3.67700 Y-1.75100
X3.67700 Y-1.75200
X3.67800 Y-1.75200
X3.67800 Y-1.75300
X3.67900 Y-1.75300
X3.67900 Y-1.75400
X3.68000 Y-1.75400
X3.68000 Y-1.75500
X3.68100 Y-1.75500
X3.68100 Y-1.75600
X3.68200 Y-1.75600
X3.68200 Y-1.75700
X3.68300 Y-1.75700
X3.68300 Y-1.75800
X3.68400 Y-1.75800
X3.68400 Y-1.75900
X3.68500 Y-1.75900
X3.68500 Y-1.76000
X3.68600 Y-1.76000
X3.68600 Y-1.76100
X3.68700 Y-1.76100
X3.68700 Y-1.76200
X3.68800 Y-1.76200
X3.68800 Y-1.76300
X3.68900 Y-1.76300
X3.68900 Y-1.76400
X3.69000 Y-1.76400
X3.69000 Y-1.76500
X3.69100 Y-1.76500
X3.69100 Y-1.76600
X3.69200 Y-1.76600
X3.69200 Y-1.76700
X3.69300 Y-1.76700
X3.69300 Y-1.76800
X3.69400 Y-1.76800
X3.69400 Y-1.76900
X3.69500 Y-1.76900
X3.69500 Y-1.77000
X3.69600 Y-1.77000
X3.69600 Y-1.77100
X3.69700 Y-1.77100
X3.69700 Y-1.77200
X3.69800 Y-1.77200
X3.69800 Y-1.77300
X3.69900 Y-1.77300
X3.69900 Y-1.77400
X3.70000 Y-1.77400
X3.70000 Y-1.77500
X3.70100 Y-1.77500
X3.70100 Y-1.77600
X3.70200 Y-1.77600
X3.70200 Y-1.77700
X3.70300 Y-1.77700
X3.70300 Y-1.77800
X3.70400 Y-1.77800
X3.70400 Y-1.77900
X3.70500 Y-1.77900
X3.70500 Y-1.78000
X3.70600 Y-1.78000
X3.70600 Y-1.78100
X3.70700 Y-1.78100
X3.70700 Y-1.78200
X3.70800 Y-1.78200
X3.70800 Y-1.78300
X3.70900 Y-1.78300
X3.70900 Y-1.78400
X3.71000 Y-1.78400
X3.71000 Y-1.78500
X3.71100 Y-1.78500
X3.71100 Y-1.78600
X3.71200 Y-1.78600
X3.71200 Y-1.78700
X3.71300 Y-1.78700
X3.71300 Y-1.78800
X3.71400 Y-1.78800
X3.71400 Y-1.78900
X3.71500 Y-1.78900
X3.71500 Y-1.79000
X3.71600 Y-1.79000
X3.71600 Y-1.79100
X3.71700 Y-1.79100
X3.71700 Y-1.79200
X3.71800 Y-1.79200
X3.71800 Y-1.79300
X3.71900 Y-1.79300
X3.71900 Y-1.79400
X3.72000 Y-1.79400
X3.72000 Y-1.79500
X3.72100 Y-1.79500
X3.72100 Y-1.79600
X3.72200 Y-1.79600
X3.72200 Y-1.79700
X3.72300 Y-1.79700
X3.72300 Y-1.79800
X3.72400 Y-1.79800
X3.72400 Y-1.79900
X3.72500 Y-1.79900
X3.72500 Y-1.80000
X3.72600 Y-1.80000
X3.72600 Y-1.80100
X3.72700 Y-1.80100
X3.72700 Y-1.80200
X3.72800 Y-1.80200
X3.72800 Y-1.80300
X3.72900 Y-1.80300
X3.72900 Y-1.80400
X3.73000 Y-1.80400
X3.73000 Y-1.80500
X3.73100 Y-1.80500
X3.73100 Y-1.80600
X3.73200 Y-1.80600
X3.73200 Y-1.80700
X3.73300 Y-1.80700
X3.73300 Y-1.80800
X3.73400 Y-1.80800
X3.73400 Y-1.80900
X3.73500 Y-1.80900
X3.73500 Y-1.81000
X3.73600 Y-1.81000
X3.73600 Y-1.81100
X3.73700 Y-1.81100
X3.73700 Y-1.81200
X3.73800 Y-1.81200
X3.73800 Y-1.81300
X3.73900 Y-1.81300
X3.73900 Y-1.81400
X3.74000 Y-1.81400
X3.74000 Y-1.81500
X3.74100 Y-1.81500
X3.74100 Y-1.81600
X3.74200 Y-1.81600
X3.74200 Y-1.81700
X3.74300 Y-1.81700
X3.74300 Y-1.81800
X3.74400 Y-1.81800
X3.74400 Y-1.81900
X3.74600 Y-1.81900
X3.74600 Y-1.82000
X3.74700 Y-1.82000
X3.74700 Y-1.82100
X3.74800 Y-1.82100
X3.74800 Y-1.82200
X3.74900 Y-1.82200
X3.74900 Y-1.82300
X3.75000 Y-1.82300
X3.75000 Y-1.82400
X3.75100 Y-1.82400
X3.75100 Y-1.82500
X3.75200 Y-1.82500
X3.75200 Y-1.82600
X3.75300 Y-1.82600
X3.75300 Y-1.82700
X3.75400 Y-1.82700
X3.75400 Y-1.83000
X3.75500 Y-1.83000
X3.75500 Y-2.26900
X3.75400 Y-2.26900
X3.75400 Y-2.27200
X3.75300 Y-2.27200
X3.75300 Y-2.27300
X3.75200 Y-2.27300
X3.75200 Y-2.27400
X3.75100 Y-2.27400
X3.75100 Y-2.27500
X3.75000 Y-2.27500
X3.75000 Y-2.27600
X3.74900 Y-2.27600
X3.74900 Y-2.27700
X3.74800 Y-2.27700
X3.74800 Y-2.27800
X3.74700 Y-2.27800
X3.74700 Y-2.27900
X3.74600 Y-2.27900
X3.74600 Y-2.28000
X3.74500 Y-2.28000
X3.74500 Y-2.28100
X3.74400 Y-2.28100
X3.74400 Y-2.28200
X3.74300 Y-2.28200
X3.74300 Y-2.28300
X3.74200 Y-2.28300
X3.74200 Y-2.28400
X3.74100 Y-2.28400
X3.74100 Y-2.28500
X3.74000 Y-2.28500
X3.74000 Y-2.28600
X3.73900 Y-2.28600
X3.73900 Y-2.28700
X3.73800 Y-2.28700
X3.73800 Y-2.28800
X3.73700 Y-2.28800
X3.73700 Y-2.28900
X3.73600 Y-2.28900
X3.73600 Y-2.29000
X3.73500 Y-2.29000
X3.73500 Y-2.29100
X3.73400 Y-2.29100
X3.73400 Y-2.29200
X3.73300 Y-2.29200
X3.73300 Y-2.29300
X3.73200 Y-2.29300
X3.73200 Y-2.29400
X3.73100 Y-2.29400
X3.73100 Y-2.29500
X3.73000 Y-2.29500
X3.73000 Y-2.29600
X3.72900 Y-2.29600
X3.72900 Y-2.29700
X3.72800 Y-2.29700
X3.72800 Y-2.29800
X3.72700 Y-2.29800
X3.72700 Y-2.29900
X3.72600 Y-2.29900
X3.72600 Y-2.30000
X3.72500 Y-2.30000
X3.72500 Y-2.30100
X3.72400 Y-2.30100
X3.72400 Y-2.30200
X3.72300 Y-2.30200
X3.72300 Y-2.30300
X3.72200 Y-2.30300
X3.72200 Y-2.30400
X3.72100 Y-2.30400
X3.72100 Y-2.30500
X3.72000 Y-2.30500
X3.72000 Y-2.30600
X3.71900 Y-2.30600
X3.71900 Y-2.30700
X3.71800 Y-2.30700
X3.71800 Y-2.30800
X3.71700 Y-2.30800
X3.71700 Y-2.30900
X3.71600 Y-2.30900
X3.71600 Y-2.31000
X3.71500 Y-2.31000
X3.71500 Y-2.31100
X3.71400 Y-2.31100
X3.71400 Y-2.31200
X3.71200 Y-2.31200
X3.71200 Y-2.31300
X3.65700 Y-2.31300
X3.65700 Y-2.31200
X3.65600 Y-2.31200
X3.65600 Y-2.31100
X3.65500 Y-2.31100
X3.65500 Y-2.31000
X3.65300 Y-2.31000
X3.65300 Y-2.30900
X3.65000 Y-2.30900
X3.65000 Y-2.30800
X3.64400 Y-2.30800
X3.64400 Y-2.30700
X3.60600 Y-2.30700
X3.60600 Y-2.30600
X3.60500 Y-2.30600
X3.60500 Y-2.30400
X3.60400 Y-2.30400
X3.60400 Y-2.29500
X3.60500 Y-2.29500
X3.60500 Y-2.29300
X3.60600 Y-2.29300
X3.60600 Y-2.29200
X3.60700 Y-2.29200
X3.60700 Y-2.29100
X3.61500 Y-2.29100
X3.61500 Y-2.29200
X3.64900 Y-2.29200
X3.64900 Y-2.29100
X3.65100 Y-2.29100
X3.65100 Y-2.29000
X3.65400 Y-2.29000
X3.65400 Y-2.28900
X3.65500 Y-2.28900
X3.65500 Y-2.28800
X3.65700 Y-2.28800
X3.65700 Y-2.28700
X3.69500 Y-2.28700
X3.69500 Y-2.28600
X3.69900 Y-2.28600
X3.69900 Y-2.28500
X3.70500 Y-2.28500
X3.70500 Y-2.28400
X3.70700 Y-2.28400
X3.70700 Y-2.28300
X3.70900 Y-2.28300
X3.70900 Y-2.28200
X3.71100 Y-2.28200
X3.71100 Y-2.28100
X3.71200 Y-2.28100
X3.71200 Y-2.28000
X3.71400 Y-2.28000
X3.71400 Y-2.27900
X3.71500 Y-2.27900
X3.71500 Y-2.27800
X3.71600 Y-2.27800
X3.71600 Y-2.27600
X3.71700 Y-2.27600
X3.71700 Y-2.27500
X3.71800 Y-2.27500
X3.71800 Y-2.27300
X3.71900 Y-2.27300
X3.71900 Y-2.27200
X3.72000 Y-2.27200
X3.72000 Y-2.27100
X3.72100 Y-2.27100
X3.72100 Y-2.26900
X3.72200 Y-2.26900
X3.72200 Y-2.26700
X3.72300 Y-2.26700
X3.72300 Y-2.26100
X3.72400 Y-2.26100
X3.72400 Y-2.19800
X3.72300 Y-2.19800
X3.72300 Y-2.19200
X3.72200 Y-2.19200
X3.72200 Y-2.19000
X3.72100 Y-2.19000
X3.72100 Y-2.18800
X3.72000 Y-2.18800
X3.72000 Y-2.18700
X3.71900 Y-2.18700
X3.71900 Y-2.18600
X3.71800 Y-2.18600
X3.71800 Y-2.18400
X3.71700 Y-2.18400
X3.71700 Y-2.18300
X3.71600 Y-2.18300
X3.71600 Y-2.18200
X3.71500 Y-2.18200
X3.71500 Y-2.18100
X3.71400 Y-2.18100
X3.71400 Y-2.18000
X3.71300 Y-2.18000
X3.71300 Y-2.17900
X3.71200 Y-2.17900
X3.71200 Y-2.17800
X3.71100 Y-2.17800
X3.71100 Y-2.17700
X3.71000 Y-2.17700
X3.71000 Y-2.17600
X3.70900 Y-2.17600
X3.70900 Y-2.17500
X3.70800 Y-2.17500
X3.70800 Y-2.17400
X3.70700 Y-2.17400
X3.70700 Y-2.17300
X3.70600 Y-2.17300
X3.70600 Y-2.17200
X3.70500 Y-2.17200
X3.70500 Y-2.17100
X3.70400 Y-2.17100
X3.70400 Y-2.17000
X3.70300 Y-2.17000
X3.70300 Y-2.16900
X3.70200 Y-2.16900
X3.70200 Y-2.16800
X3.70100 Y-2.16800
X3.70100 Y-2.16700
X3.70000 Y-2.16700
X3.70000 Y-2.16600
X3.69900 Y-2.16600
X3.69900 Y-2.16500
X3.69800 Y-2.16500
X3.69800 Y-2.16400
X3.69700 Y-2.16400
X3.69700 Y-2.16300
X3.69600 Y-2.16300
X3.69600 Y-2.16200
X3.69500 Y-2.16200
X3.69500 Y-2.16100
X3.69400 Y-2.16100
X3.69400 Y-2.16000
X3.69300 Y-2.16000
X3.69300 Y-2.15900
X3.69200 Y-2.15900
X3.69200 Y-2.15800
X3.69100 Y-2.15800
X3.69100 Y-2.15700
X3.69000 Y-2.15700
X3.69000 Y-2.15600
X3.68900 Y-2.15600
X3.68900 Y-2.15500
X3.68800 Y-2.15500
X3.68800 Y-2.15400
X3.68700 Y-2.15400
X3.68700 Y-2.15300
X3.68600 Y-2.15300
X3.68600 Y-2.15200
X3.68500 Y-2.15200
X3.68500 Y-2.15100
X3.68400 Y-2.15100
X3.68400 Y-2.15000
X3.68300 Y-2.15000
X3.68300 Y-2.14900
X3.68200 Y-2.14900
X3.68200 Y-2.14800
X3.68100 Y-2.14800
X3.68100 Y-2.14700
X3.68000 Y-2.14700
X3.68000 Y-2.14600
X3.67900 Y-2.14600
X3.67900 Y-2.14500
X3.67800 Y-2.14500
X3.67800 Y-2.14400
X3.67700 Y-2.14400
X3.67700 Y-2.14300
X3.67600 Y-2.14300
X3.67600 Y-2.14200
X3.67500 Y-2.14200
X3.67500 Y-2.14100
X3.67300 Y-2.14100
X3.67300 Y-2.14000
X3.67200 Y-2.14000
X3.67200 Y-2.13900
X3.67100 Y-2.13900
X3.67100 Y-2.13800
X3.66900 Y-2.13800
X3.66900 Y-2.13700
X3.66700 Y-2.13700
X3.66700 Y-2.13600
X3.66100 Y-2.13600
X3.66100 Y-2.13500
X3.43700 Y-2.13500
X3.43700 Y-2.13600
X3.43100 Y-2.13600
X3.43100 Y-2.13700
X3.42900 Y-2.13700
X3.42900 Y-2.13800
X3.42800 Y-2.13800
X3.42800 Y-2.13900
X3.42600 Y-2.13900
X3.42600 Y-2.14000
X3.42500 Y-2.14000
X3.42500 Y-2.14100
X3.42400 Y-2.14100
X3.42400 Y-2.14200
X3.42300 Y-2.14200
X3.42300 Y-2.14300
X3.42200 Y-2.14300
X3.42200 Y-2.14400
X3.42100 Y-2.14400
X3.42100 Y-2.14500
X3.42000 Y-2.14500
X3.42000 Y-2.14600
X3.41900 Y-2.14600
X3.41900 Y-2.14700
X3.41800 Y-2.14700
X3.41800 Y-2.14800
X3.41700 Y-2.14800
X3.41700 Y-2.14900
X3.41600 Y-2.14900
X3.41600 Y-2.15000
X3.41500 Y-2.15000
X3.41500 Y-2.15100
X3.41400 Y-2.15100
X3.41400 Y-2.15200
X3.41300 Y-2.15200
X3.41300 Y-2.15300
X3.41200 Y-2.15300
X3.41200 Y-2.15400
X3.41100 Y-2.15400
X3.41100 Y-2.15500
X3.41000 Y-2.15500
X3.41000 Y-2.15600
X3.40900 Y-2.15600
X3.40900 Y-2.15700
X3.40800 Y-2.15700
X3.40800 Y-2.15800
X3.40700 Y-2.15800
X3.40700 Y-2.15900
X3.40600 Y-2.15900
X3.40600 Y-2.16000
X3.40500 Y-2.16000
X3.40500 Y-2.16100
X3.40400 Y-2.16100
X3.40400 Y-2.16200
X3.40300 Y-2.16200
X3.40300 Y-2.16300
X3.40200 Y-2.16300
X3.40200 Y-2.16400
X3.40100 Y-2.16400
X3.40100 Y-2.16600
X3.40000 Y-2.16600
X3.40000 Y-2.16700
X3.39900 Y-2.16700
X3.39900 Y-2.16800
X3.39800 Y-2.16800
X3.39800 Y-2.17000
X3.39700 Y-2.17000
X3.39700 Y-2.17200
X3.39600 Y-2.17200
X3.39600 Y-2.17800
X3.39500 Y-2.17800
X3.39500 Y-2.18100
X3.39400 Y-2.18100
X3.39400 Y-2.18300
X3.39300 Y-2.18300
X3.39300 Y-2.18400
X3.39200 Y-2.18400
X3.39200 Y-2.18500
X3.38700 Y-2.18500
X3.38700 Y-2.18600
X3.38500 Y-2.18600
X3.38500 Y-2.18700
X3.38200 Y-2.18700
X3.38200 Y-2.18800
X3.38100 Y-2.18800
X3.38100 Y-2.18900
X3.38000 Y-2.18900
X3.38000 Y-2.19000
X3.37900 Y-2.19000
X3.37900 Y-2.19100
X3.37800 Y-2.19100
X3.37800 Y-2.19200
X3.37700 Y-2.19200
X3.37700 Y-2.19300
X3.37600 Y-2.19300
X3.37600 Y-2.19400
X3.37500 Y-2.19400
X3.37500 Y-2.19500
X3.37400 Y-2.19500
X3.37400 Y-2.19800
X3.37300 Y-2.19800
X3.37300 Y-2.20000
X3.37200 Y-2.20000
X3.37200 Y-2.24400
X3.37300 Y-2.24400
X3.37300 Y-2.24600
X3.37400 Y-2.24600
X3.37400 Y-2.24900
X3.37500 Y-2.24900
X3.37500 Y-2.25000
X3.37600 Y-2.25000
X3.37600 Y-2.25100
X3.37700 Y-2.25100
X3.37700 Y-2.25200
X3.37800 Y-2.25200
X3.37800 Y-2.25300
X3.37900 Y-2.25300
X3.37900 Y-2.25400
X3.38000 Y-2.25400
X3.38000 Y-2.25500
X3.38100 Y-2.25500
X3.38100 Y-2.25800
X3.38200 Y-2.25800
X3.38200 Y-2.26100
X3.38100 Y-2.26100
X3.38100 Y-2.26400
X3.38000 Y-2.26400
X3.38000 Y-2.26500
X3.37900 Y-2.26500
X3.37900 Y-2.26600
X3.37800 Y-2.26600
X3.37800 Y-2.26700
X3.37700 Y-2.26700
X3.37700 Y-2.26800
X3.37600 Y-2.26800
X3.37600 Y-2.26900
X3.37500 Y-2.26900
X3.37500 Y-2.27000
X3.37400 Y-2.27000
X3.37400 Y-2.27300
X3.37300 Y-2.27300
X3.37300 Y-2.27500
X3.37200 Y-2.27500
X3.37200 Y-2.28300
X3.37300 Y-2.28300
X3.37300 Y-2.28400
X3.37400 Y-2.28400
X3.37400 Y-2.28500
X3.37500 Y-2.28500
X3.37500 Y-2.28600
X3.37600 Y-2.28600
X3.37600 Y-2.28700
X3.39200 Y-2.28700
X3.39200 Y-2.28000
X3.44700 Y-2.28000
X3.44700 Y-2.28700
X3.46300 Y-2.28700
X3.46300 Y-2.28600
X3.46400 Y-2.28600
X3.46400 Y-2.28500
X3.46500 Y-2.28500
X3.46500 Y-2.28400
X3.46600 Y-2.28400
X3.46600 Y-2.27400
X3.46500 Y-2.27400
X3.46500 Y-2.27100
X3.46400 Y-2.27100
X3.46400 Y-2.26900
X3.46300 Y-2.26900
X3.46300 Y-2.26800
X3.46200 Y-2.26800
X3.46200 Y-2.26700
X3.46100 Y-2.26700
X3.46100 Y-2.26600
X3.46000 Y-2.26600
X3.46000 Y-2.26500
X3.45900 Y-2.26500
X3.45900 Y-2.26400
X3.45800 Y-2.26400
X3.45800 Y-2.26100
X3.45700 Y-2.26100
X3.45700 Y-2.25800
X3.45800 Y-2.25800
X3.45800 Y-2.25500
X3.45900 Y-2.25500
X3.45900 Y-2.25400
X3.46000 Y-2.25400
X3.46000 Y-2.25300
X3.46100 Y-2.25300
X3.46100 Y-2.25200
X3.46200 Y-2.25200
X3.46200 Y-2.25100
X3.46300 Y-2.25100
X3.46300 Y-2.25000
X3.46400 Y-2.25000
X3.46400 Y-2.24800
X3.46500 Y-2.24800
X3.46500 Y-2.24500
X3.46600 Y-2.24500
X3.46600 Y-2.19900
X3.46500 Y-2.19900
X3.46500 Y-2.19600
X3.46400 Y-2.19600
X3.46400 Y-2.19400
X3.46300 Y-2.19400
X3.46300 Y-2.19100
X3.46200 Y-2.19100
X3.46200 Y-2.18800
X3.46300 Y-2.18800
X3.46300 Y-2.18600
X3.46400 Y-2.18600
X3.46400 Y-2.18500
X3.46500 Y-2.18500
X3.46500 Y-2.18400
X3.64900 Y-2.18400
X3.64900 Y-2.18500
X3.65100 Y-2.18500
X3.65100 Y-2.18600
X3.65200 Y-2.18600
X3.65200 Y-2.18700
X3.65300 Y-2.18700
X3.65300 Y-2.18800
X3.65400 Y-2.18800
X3.65400 Y-2.18900
X3.65500 Y-2.18900
X3.65500 Y-2.19000
X3.65600 Y-2.19000
X3.65600 Y-2.19100
X3.65700 Y-2.19100
X3.65700 Y-2.19200
X3.65800 Y-2.19200
X3.65800 Y-2.19300
X3.65900 Y-2.19300
X3.65900 Y-2.19400
X3.66000 Y-2.19400
X3.66000 Y-2.19500
X3.66100 Y-2.19500
X3.66100 Y-2.19600
X3.66200 Y-2.19600
X3.66200 Y-2.19700
X3.66300 Y-2.19700
X3.66300 Y-2.19800
X3.66400 Y-2.19800
X3.66400 Y-2.19900
X3.66500 Y-2.19900
X3.66500 Y-2.20000
X3.66600 Y-2.20000
X3.66600 Y-2.20100
X3.66700 Y-2.20100
X3.66700 Y-2.20200
X3.66800 Y-2.20200
X3.66800 Y-2.20300
X3.66900 Y-2.20300
X3.66900 Y-2.20400
X3.67000 Y-2.20400
X3.67000 Y-2.20500
X3.67100 Y-2.20500
X3.67100 Y-2.20600
X3.67300 Y-2.20600
X3.67300 Y-2.20700
X3.67400 Y-2.20700
X3.67400 Y-2.21000
X3.67500 Y-2.21000
X3.67500 Y-2.23400
X3.67400 Y-2.23400
X3.67400 Y-2.23600
X3.67300 Y-2.23600
X3.67300 Y-2.23700
X3.67200 Y-2.23700
X3.67200 Y-2.23800
X3.65700 Y-2.23800
X3.65700 Y-2.23700
X3.65600 Y-2.23700
X3.65600 Y-2.23600
X3.65500 Y-2.23600
X3.65500 Y-2.23500
X3.65300 Y-2.23500
X3.65300 Y-2.23400
X3.65000 Y-2.23400
X3.65000 Y-2.23300
X3.64400 Y-2.23300
X3.64400 Y-2.23200
X3.61000 Y-2.23200
X3.61000 Y-2.23300
X3.60800 Y-2.23300
X3.60800 Y-2.23400
X3.60500 Y-2.23400
X3.60500 Y-2.23500
X3.60400 Y-2.23500
X3.60400 Y-2.23600
X3.60300 Y-2.23600
X3.60300 Y-2.23700
X3.60200 Y-2.23700
X3.60200 Y-2.23800
X3.60100 Y-2.23800
X3.60100 Y-2.23900
X3.60000 Y-2.23900
X3.60000 Y-2.24000
X3.59900 Y-2.24000
X3.59900 Y-2.24100
X3.59800 Y-2.24100
X3.59800 Y-2.24200
X3.58900 Y-2.24200
X3.58900 Y-2.24100
X3.58700 Y-2.24100
X3.58700 Y-2.24000
X3.58500 Y-2.24000
X3.58500 Y-2.23900
X3.57900 Y-2.23900
X3.57900 Y-2.23800
X3.55700 Y-2.23800
X3.55700 Y-2.23700
X3.55600 Y-2.23700
X3.55600 Y-2.23600
X3.55500 Y-2.23600
X3.55500 Y-2.23500
X3.55300 Y-2.23500
X3.55300 Y-2.23400
X3.55000 Y-2.23400
X3.55000 Y-2.23300
X3.54400 Y-2.23300
X3.54400 Y-2.23200
X3.51000 Y-2.23200
X3.51000 Y-2.23300
X3.50800 Y-2.23300
X3.50800 Y-2.23400
X3.50500 Y-2.23400
X3.50500 Y-2.23500
X3.50400 Y-2.23500
X3.50400 Y-2.23600
X3.50300 Y-2.23600
X3.50300 Y-2.23700
X3.50200 Y-2.23700
X3.50200 Y-2.23800
X3.50100 Y-2.23800
X3.50100 Y-2.23900
X3.50000 Y-2.23900
X3.50000 Y-2.24000
X3.49900 Y-2.24000
X3.49900 Y-2.24100
X3.49800 Y-2.24100
X3.49800 Y-2.24300
X3.49700 Y-2.24300
X3.49700 Y-2.24500
X3.49600 Y-2.24500
X3.49600 Y-2.24800
X3.49500 Y-2.24800
X3.49500 Y-2.27700
X3.49600 Y-2.27700
X3.49600 Y-2.28400
X3.49500 Y-2.28400
X3.49500 Y-2.28600
X3.49600 Y-2.28600
X3.49600 Y-2.28700
X3.49700 Y-2.28700
X3.49700 Y-2.28800
X3.49800 Y-2.28800
X3.49800 Y-2.28900
X3.50600 Y-2.28900
X3.50600 Y-2.29000
X3.50900 Y-2.29000
X3.50900 Y-2.29100
X3.51400 Y-2.29100
X3.51400 Y-2.28900
X3.54500 Y-2.28900
X3.54500 Y-2.31000
X3.51400 Y-2.31000
X3.51400 Y-2.30700
X3.51000 Y-2.30700
X3.51000 Y-2.30800
X3.50800 Y-2.30800
X3.50800 Y-2.30900
X3.50600 Y-2.30900
X3.50600 Y-2.31000
X3.49800 Y-2.31000
X3.49800 Y-2.31100
X3.49700 Y-2.31100
X3.49700 Y-2.31200
X3.49600 Y-2.31200
X3.49600 Y-2.31300
X3.49500 Y-2.31300
X3.49500 Y-2.31400
X3.49300 Y-2.31400
X3.49300 Y-2.31500
X3.49200 Y-2.31500
X3.49200 Y-2.31600
X3.49000 Y-2.31600
X3.49000 Y-2.31700
X3.48800 Y-2.31700
X3.48800 Y-2.31800
X3.48700 Y-2.31800
X3.48700 Y-2.31900
X3.48500 Y-2.31900
X3.48500 Y-2.32000
X3.48400 Y-2.32000
X3.48400 Y-2.32100
X3.48300 Y-2.32100
X3.48300 Y-2.32200
X3.48200 Y-2.32200
X3.48200 Y-2.32300
X3.48100 Y-2.32300
X3.48100 Y-2.32400
X3.48000 Y-2.32400
X3.48000 Y-2.32500
X3.47900 Y-2.32500
X3.47900 Y-2.32600
X3.47800 Y-2.32600
X3.47800 Y-2.32700
X3.47700 Y-2.32700
X3.47700 Y-2.32800
X3.47600 Y-2.32800
X3.47600 Y-2.32900
X3.47500 Y-2.32900
X3.47500 Y-2.33000
X3.47400 Y-2.33000
X3.47400 Y-2.33100
X3.47300 Y-2.33100
X3.47300 Y-2.33200
X3.47200 Y-2.33200
X3.47200 Y-2.33300
X3.46500 Y-2.33300
X3.46500 Y-2.33200
X3.46400 Y-2.33200
X3.46400 Y-2.33000
X3.46300 Y-2.33000
X3.46300 Y-2.32600
X3.46400 Y-2.32600
X3.46400 Y-2.32300
X3.46500 Y-2.32300
X3.46500 Y-2.32000
X3.46600 Y-2.32000
X3.46600 Y-2.31100
X3.46500 Y-2.31100
X3.46500 Y-2.31000
X3.46400 Y-2.31000
X3.46400 Y-2.30900
X3.46300 Y-2.30900
X3.46300 Y-2.30800
X3.44700 Y-2.30800
X3.44700 Y-2.31500
X3.43000 Y-2.31500
X3.43000 Y-2.33100
X3.43100 Y-2.33100
X3.43100 Y-2.33200
X3.43200 Y-2.33200
X3.43200 Y-2.33300
X3.43300 Y-2.33300
X3.43300 Y-2.33400
X3.45100 Y-2.33400
X3.45100 Y-2.33300
X3.45300 Y-2.33300
X3.45300 Y-2.33200
X3.45600 Y-2.33200
X3.45600 Y-2.33100
X3.45800 Y-2.33100
X3.45800 Y-2.33000
X3.46000 Y-2.33000
X3.46000 Y-2.33100
X3.46400 Y-2.33100
X3.46400 Y-2.33200
X3.46500 Y-2.33200
X3.46500 Y-2.33400
X3.46600 Y-2.33400
X3.46600 Y-2.33800
X3.46500 Y-2.33800
X3.46500 Y-2.34000
X3.46400 Y-2.34000
X3.46400 Y-2.34100
X3.46300 Y-2.34100
X3.46300 Y-2.34300
X3.46200 Y-2.34300
X3.46200 Y-2.34400
X3.46100 Y-2.34400
X3.46100 Y-2.34600
X3.46000 Y-2.34600
X3.46000 Y-2.34700
X3.45900 Y-2.34700
X3.45900 Y-2.34800
X3.45800 Y-2.34800
X3.45800 Y-2.35000
X3.45700 Y-2.35000
X3.45700 Y-2.35200
X3.45600 Y-2.35200
X3.45600 Y-2.35800
X3.45500 Y-2.35800
X3.45500 Y-2.39600
X3.45400 Y-2.39600
X3.45400 Y-2.39800
X3.45300 Y-2.39800
X3.45300 Y-2.39900
X3.45200 Y-2.39900
X3.45200 Y-2.40000
X3.42900 Y-2.40000
X3.42900 Y-2.40100
X3.42700 Y-2.40100
X3.42700 Y-2.40200
X3.42400 Y-2.40200
X3.42400 Y-2.40300
X3.42200 Y-2.40300
X3.42200 Y-2.40400
X3.42000 Y-2.40400
X3.42000 Y-2.40500
X3.41700 Y-2.40500
X3.41700 Y-2.40600
X3.41500 Y-2.40600
X3.41500 Y-2.40700
X3.41200 Y-2.40700
X3.41200 Y-2.40800
X3.41000 Y-2.40800
X3.41000 Y-2.40900
X3.40800 Y-2.40900
X3.40800 Y-2.41000
X3.40500 Y-2.41000
X3.40500 Y-2.41100
X3.40300 Y-2.41100
X3.40300 Y-2.41200
X3.40000 Y-2.41200
X3.40000 Y-2.41300
X3.39800 Y-2.41300
X3.39800 Y-2.41400
X3.39600 Y-2.41400
X3.39600 Y-2.41500
X3.39400 Y-2.41500
X3.39400 Y-2.41600
X3.39300 Y-2.41600
X3.39300 Y-2.41700
X3.39100 Y-2.41700
X3.39100 Y-2.41800
X3.39000 Y-2.41800
X3.39000 Y-2.41900
X3.38900 Y-2.41900
X3.38900 Y-2.42000
X3.38800 Y-2.42000
X3.38800 Y-2.42100
X3.38700 Y-2.42100
X3.38700 Y-2.42200
X3.38600 Y-2.42200
X3.38600 Y-2.42300
X3.38500 Y-2.42300
X3.38500 Y-2.42400
X3.38400 Y-2.42400
X3.38400 Y-2.42500
X3.38300 Y-2.42500
X3.38300 Y-2.42600
X3.38200 Y-2.42600
X3.38200 Y-2.42700
X3.38100 Y-2.42700
X3.38100 Y-2.42800
X3.38000 Y-2.42800
X3.38000 Y-2.42900
X3.37900 Y-2.42900
X3.37900 Y-2.43000
X3.37800 Y-2.43000
X3.37800 Y-2.43100
X3.37700 Y-2.43100
X3.37700 Y-2.43200
X3.37600 Y-2.43200
X3.37600 Y-2.43300
X3.37500 Y-2.43300
X3.37500 Y-2.43400
X3.37400 Y-2.43400
X3.37400 Y-2.43500
X3.37300 Y-2.43500
X3.37300 Y-2.43600
X3.37200 Y-2.43600
X3.37200 Y-2.43700
X3.37100 Y-2.43700
X3.37100 Y-2.43800
X3.37000 Y-2.43800
X3.37000 Y-2.43900
X3.36900 Y-2.43900
X3.36900 Y-2.44000
X3.36800 Y-2.44000
X3.36800 Y-2.44100
X3.36700 Y-2.44100
X3.36700 Y-2.44200
X3.36600 Y-2.44200
X3.36600 Y-2.44300
X3.36500 Y-2.44300
X3.36500 Y-2.44500
X3.36400 Y-2.44500
X3.36400 Y-2.44700
X3.36300 Y-2.44700
X3.36300 Y-2.45000
X3.36200 Y-2.45000
X3.36200 Y-2.45200
X3.36100 Y-2.45200
X3.36100 Y-2.45400
X3.36000 Y-2.45400
X3.36000 Y-2.45700
X3.35900 Y-2.45700
X3.35900 Y-2.45900
X3.35800 Y-2.45900
X3.35800 Y-2.46200
X3.35700 Y-2.46200
X3.35700 Y-2.46400
X3.35600 Y-2.46400
X3.35600 Y-2.46700
X3.35500 Y-2.46700
X3.35500 Y-2.46900
X3.35400 Y-2.46900
X3.35400 Y-2.47100
X3.35300 Y-2.47100
X3.35300 Y-2.47400
X3.35200 Y-2.47400
X3.35200 Y-2.47600
X3.35100 Y-2.47600
X3.35100 Y-2.47900
X3.35000 Y-2.47900
X3.35000 Y-2.52000
X3.35100 Y-2.52000
X3.35100 Y-2.52200
X3.35200 Y-2.52200
X3.35200 Y-2.52400
X3.35300 Y-2.52400
X3.35300 Y-2.52700
X3.35400 Y-2.52700
X3.35400 Y-2.53000
X3.35500 Y-2.53000
X3.35500 Y-2.53300
X3.35400 Y-2.53300
X3.35400 Y-2.53500
X3.35300 Y-2.53500
X3.35300 Y-2.53600
X3.34500 Y-2.53600
X3.34500 Y-2.53500
X3.34400 Y-2.53500
X3.34400 Y-2.53400
X3.34300 Y-2.53400
X3.34300 Y-2.53300
X3.34200 Y-2.53300
X3.34200 Y-2.53200
X3.34100 Y-2.53200
X3.34100 Y-2.53100
X3.34000 Y-2.53100
X3.34000 Y-2.53000
X3.33900 Y-2.53000
X3.33900 Y-2.52900
X3.33800 Y-2.52900
X3.33800 Y-2.52800
X3.33700 Y-2.52800
X3.33700 Y-2.52700
X3.33600 Y-2.52700
X3.33600 Y-2.52600
X3.33500 Y-2.52600
X3.33500 Y-2.52500
X3.33400 Y-2.52500
X3.33400 Y-2.52400
X3.33300 Y-2.52400
X3.33300 Y-2.52300
X3.33200 Y-2.52300
X3.33200 Y-2.52200
X3.33100 Y-2.52200
X3.33100 Y-2.52100
X3.33000 Y-2.52100
X3.33000 Y-2.52000
X3.32900 Y-2.52000
X3.32900 Y-2.51900
X3.32800 Y-2.51900
X3.32800 Y-2.51800
X3.32700 Y-2.51800
X3.32700 Y-2.51700
X3.32600 Y-2.51700
X3.32600 Y-2.51600
X3.32500 Y-2.51600
X3.32500 Y-2.51500
X3.32400 Y-2.51500
X3.32400 Y-2.51400
X3.32300 Y-2.51400
X3.32300 Y-2.51300
X3.32200 Y-2.51300
X3.32200 Y-2.51200
X3.32100 Y-2.51200
X3.32100 Y-2.51100
X3.32000 Y-2.51100
X3.32000 Y-2.51000
X3.31900 Y-2.51000
X3.31900 Y-2.50900
X3.31800 Y-2.50900
X3.31800 Y-2.50800
X3.31700 Y-2.50800
X3.31700 Y-2.50700
X3.31600 Y-2.50700
X3.31600 Y-2.50600
X3.31500 Y-2.50600
X3.31500 Y-2.50500
X3.31400 Y-2.50500
X3.31400 Y-2.50400
X3.31300 Y-2.50400
X3.31300 Y-2.50300
X3.31200 Y-2.50300
X3.31200 Y-2.50200
X3.31100 Y-2.50200
X3.31100 Y-2.50100
X3.31000 Y-2.50100
X3.31000 Y-2.50000
X3.30900 Y-2.50000
X3.30900 Y-2.49900
X3.30800 Y-2.49900
X3.30800 Y-2.49800
X3.30700 Y-2.49800
X3.30700 Y-2.49700
X3.30600 Y-2.49700
X3.30600 Y-2.49600
X3.30500 Y-2.49600
X3.30500 Y-2.49500
X3.30400 Y-2.49500
X3.30400 Y-2.49400
X3.30300 Y-2.49400
X3.30300 Y-2.49300
X3.30200 Y-2.49300
X3.30200 Y-2.49200
X3.30100 Y-2.49200
X3.30100 Y-2.49100
X3.30000 Y-2.49100
X3.30000 Y-2.49000
X3.29900 Y-2.49000
X3.29900 Y-2.48900
X3.29800 Y-2.48900
X3.29800 Y-2.48800
X3.29700 Y-2.48800
X3.29700 Y-2.48700
X3.29600 Y-2.48700
X3.29600 Y-2.48600
X3.29500 Y-2.48600
X3.29500 Y-2.48500
X3.29400 Y-2.48500
X3.29400 Y-2.48400
X3.29300 Y-2.48400
X3.29300 Y-2.48300
X3.29200 Y-2.48300
X3.29200 Y-2.48200
X3.29100 Y-2.48200
X3.29100 Y-2.48100
X3.29000 Y-2.48100
X3.29000 Y-2.48000
X3.28900 Y-2.48000
X3.28900 Y-2.47900
X3.28800 Y-2.47900
X3.28800 Y-2.47800
X3.28700 Y-2.47800
X3.28700 Y-2.47700
X3.28600 Y-2.47700
X3.28600 Y-2.47600
X3.28500 Y-2.47600
X3.28500 Y-2.47500
X3.28400 Y-2.47500
X3.28400 Y-2.47400
X3.28300 Y-2.47400
X3.28300 Y-2.47300
X3.28200 Y-2.47300
X3.28200 Y-2.47200
X3.28100 Y-2.47200
X3.28100 Y-2.47100
X3.28000 Y-2.47100
X3.28000 Y-2.47000
X3.27900 Y-2.47000
X3.27900 Y-2.46900
X3.27800 Y-2.46900
X3.27800 Y-2.46800
X3.27700 Y-2.46800
X3.27700 Y-2.46700
X3.27600 Y-2.46700
X3.27600 Y-2.46600
X3.27500 Y-2.46600
X3.27500 Y-2.46500
X3.27400 Y-2.46500
X3.27400 Y-2.46400
X3.27300 Y-2.46400
X3.27300 Y-2.46300
X3.27200 Y-2.46300
X3.27200 Y-2.46200
X3.27100 Y-2.46200
X3.27100 Y-2.46100
X3.27000 Y-2.46100
X3.27000 Y-2.46000
X3.26900 Y-2.46000
X3.26900 Y-2.45900
X3.26800 Y-2.45900
X3.26800 Y-2.45800
X3.26700 Y-2.45800
X3.26700 Y-2.45700
X3.26600 Y-2.45700
X3.26600 Y-2.45600
X3.26500 Y-2.45600
X3.26500 Y-2.45500
X3.26400 Y-2.45500
X3.26400 Y-2.45400
X3.26300 Y-2.45400
X3.26300 Y-2.45300
X3.26200 Y-2.45300
X3.26200 Y-2.45200
X3.26100 Y-2.45200
X3.26100 Y-2.45100
X3.26000 Y-2.45100
X3.26000 Y-2.45000
X3.25900 Y-2.45000
X3.25900 Y-2.44900
X3.25800 Y-2.44900
X3.25800 Y-2.44800
X3.25700 Y-2.44800
X3.25700 Y-2.44700
X3.25600 Y-2.44700
X3.25600 Y-2.44600
X3.25500 Y-2.44600
X3.25500 Y-2.44500
X3.25400 Y-2.44500
X3.25400 Y-2.44400
X3.25300 Y-2.44400
X3.25300 Y-2.44300
X3.25200 Y-2.44300
X3.25200 Y-2.44200
X3.25100 Y-2.44200
X3.25100 Y-2.44100
X3.25000 Y-2.44100
X3.25000 Y-2.44000
X3.24900 Y-2.44000
X3.24900 Y-2.43900
X3.24800 Y-2.43900
X3.24800 Y-2.43800
X3.24700 Y-2.43800
X3.24700 Y-2.43700
X3.24600 Y-2.43700
X3.24600 Y-2.43600
X3.24500 Y-2.43600
X3.24500 Y-2.43500
X3.24400 Y-2.43500
X3.24400 Y-2.43400
X3.24300 Y-2.43400
X3.24300 Y-2.43300
X3.24200 Y-2.43300
X3.24200 Y-2.43200
X3.24100 Y-2.43200
X3.24100 Y-2.43100
X3.24000 Y-2.43100
X3.24000 Y-2.43000
X3.23900 Y-2.43000
X3.23900 Y-2.42900
X3.23800 Y-2.42900
X3.23800 Y-2.42800
X3.23700 Y-2.42800
X3.23700 Y-2.42700
X3.23600 Y-2.42700
X3.23600 Y-2.42600
X3.23500 Y-2.42600
X3.23500 Y-2.42500
X3.23400 Y-2.42500
X3.23400 Y-2.42400
X3.23300 Y-2.42400
X3.23300 Y-2.42300
X3.23200 Y-2.42300
X3.23200 Y-2.42200
X3.23100 Y-2.42200
X3.23100 Y-2.42100
X3.23000 Y-2.42100
X3.23000 Y-2.42000
X3.22900 Y-2.42000
X3.22900 Y-2.41900
X3.22800 Y-2.41900
X3.22800 Y-2.41800
X3.22700 Y-2.41800
X3.22700 Y-2.41700
X3.22600 Y-2.41700
X3.22600 Y-2.41600
X3.22500 Y-2.41600
X3.22500 Y-2.41500
X3.22400 Y-2.41500
X3.22400 Y-2.41400
X3.22300 Y-2.41400
X3.22300 Y-2.41300
X3.22200 Y-2.41300
X3.22200 Y-2.41200
X3.22100 Y-2.41200
X3.22100 Y-2.41100
X3.22000 Y-2.41100
X3.22000 Y-2.41000
X3.21900 Y-2.41000
X3.21900 Y-2.40900
X3.21800 Y-2.40900
X3.21800 Y-2.40800
X3.21700 Y-2.40800
X3.21700 Y-2.40700
X3.21600 Y-2.40700
X3.21600 Y-2.40600
X3.21500 Y-2.40600
X3.21500 Y-2.40500
X3.21400 Y-2.40500
X3.21400 Y-2.40400
X3.21300 Y-2.40400
X3.21300 Y-2.40300
X3.21200 Y-2.40300
X3.21200 Y-2.40200
X3.21100 Y-2.40200
X3.21100 Y-2.40100
X3.21000 Y-2.40100
X3.21000 Y-2.40000
X3.20900 Y-2.40000
X3.20900 Y-2.39900
X3.20800 Y-2.39900
X3.20800 Y-2.39800
X3.20700 Y-2.39800
X3.20700 Y-2.39700
X3.20600 Y-2.39700
X3.20600 Y-2.39600
X3.20500 Y-2.39600
X3.20500 Y-2.39500
X3.20400 Y-2.39500
X3.20400 Y-2.39400
X3.20300 Y-2.39400
X3.20300 Y-2.39300
X3.20200 Y-2.39300
X3.20200 Y-2.39200
X3.20100 Y-2.39200
X3.20100 Y-2.39100
X3.20000 Y-2.39100
X3.20000 Y-2.39000
X3.19900 Y-2.39000
X3.19900 Y-2.38900
X3.19800 Y-2.38900
X3.19800 Y-2.38800
X3.19700 Y-2.38800
X3.19700 Y-2.38700
X3.19600 Y-2.38700
X3.19600 Y-2.38600
X3.19500 Y-2.38600
X3.19500 Y-2.38500
X3.19400 Y-2.38500
X3.19400 Y-2.38400
X3.19300 Y-2.38400
X3.19300 Y-2.38300
X3.19200 Y-2.38300
X3.19200 Y-2.38200
X3.19100 Y-2.38200
X3.19100 Y-2.38100
X3.19000 Y-2.38100
X3.19000 Y-2.38000
X3.18900 Y-2.38000
X3.18900 Y-2.37900
X3.18800 Y-2.37900
X3.18800 Y-2.37800
X3.18700 Y-2.37800
X3.18700 Y-2.37700
X3.18600 Y-2.37700
X3.18600 Y-2.37600
X3.18500 Y-2.37600
X3.18500 Y-2.37500
X3.18400 Y-2.37500
X3.18400 Y-2.37400
X3.18300 Y-2.37400
X3.18300 Y-2.37300
X3.18200 Y-2.37300
X3.18200 Y-2.37200
X3.18100 Y-2.37200
X3.18100 Y-2.37100
X3.18000 Y-2.37100
X3.18000 Y-2.37000
X3.17900 Y-2.37000
X3.17900 Y-2.36900
X3.17800 Y-2.36900
X3.17800 Y-2.36800
X3.17700 Y-2.36800
X3.17700 Y-2.36700
X3.17600 Y-2.36700
X3.17600 Y-2.36600
X3.17500 Y-2.36600
X3.17500 Y-2.36500
X3.17400 Y-2.36500
X3.17400 Y-2.36400
X3.17300 Y-2.36400
X3.17300 Y-2.36300
X3.17200 Y-2.36300
X3.17200 Y-2.36200
X3.17100 Y-2.36200
X3.17100 Y-2.36100
X3.17000 Y-2.36100
X3.17000 Y-2.36000
X3.16900 Y-2.36000
X3.16900 Y-2.35900
X3.16800 Y-2.35900
X3.16800 Y-2.35800
X3.16700 Y-2.35800
X3.16700 Y-2.35700
X3.16600 Y-2.35700
X3.16600 Y-2.35600
X3.16500 Y-2.35600
X3.16500 Y-2.35500
X3.16400 Y-2.35500
X3.16400 Y-2.35400
X3.16300 Y-2.35400
X3.16300 Y-2.35300
X3.16200 Y-2.35300
X3.16200 Y-2.35200
X3.16100 Y-2.35200
X3.16100 Y-2.35100
X3.16000 Y-2.35100
X3.16000 Y-2.35000
X3.15900 Y-2.35000
X3.15900 Y-2.34900
X3.15800 Y-2.34900
X3.15800 Y-2.34800
X3.15700 Y-2.34800
X3.15700 Y-2.34700
X3.15600 Y-2.34700
X3.15600 Y-2.34600
X3.15500 Y-2.34600
X3.15500 Y-2.34500
X3.15400 Y-2.34500
X3.15400 Y-2.34400
X3.15300 Y-2.34400
X3.15300 Y-2.34300
X3.15200 Y-2.34300
X3.15200 Y-2.34200
X3.15100 Y-2.34200
X3.15100 Y-2.34100
X3.15000 Y-2.34100
X3.15000 Y-2.34000
X3.14900 Y-2.34000
X3.14900 Y-2.33900
X3.14800 Y-2.33900
X3.14800 Y-2.33800
X3.14700 Y-2.33800
X3.14700 Y-2.33700
X3.14600 Y-2.33700
X3.14600 Y-2.33600
X3.14500 Y-2.33600
X3.14500 Y-2.33500
X3.14400 Y-2.33500
X3.14400 Y-2.33400
X3.14300 Y-2.33400
X3.14300 Y-2.33300
X3.14200 Y-2.33300
X3.14200 Y-2.33200
X3.14100 Y-2.33200
X3.14100 Y-2.33100
X3.14000 Y-2.33100
X3.14000 Y-2.33000
X3.13900 Y-2.33000
X3.13900 Y-2.32900
X3.13800 Y-2.32900
X3.13800 Y-2.32800
X3.13700 Y-2.32800
X3.13700 Y-2.32700
X3.13600 Y-2.32700
X3.13600 Y-2.32600
X3.13500 Y-2.32600
X3.13500 Y-2.32500
X3.13400 Y-2.32500
X3.13400 Y-2.32400
X3.13300 Y-2.32400
X3.13300 Y-2.32300
X3.13200 Y-2.32300
X3.13200 Y-2.32200
X3.13100 Y-2.32200
X3.13100 Y-2.32100
X3.13000 Y-2.32100
X3.13000 Y-2.32000
X3.12900 Y-2.32000
X3.12900 Y-2.31900
X3.12800 Y-2.31900
X3.12800 Y-2.31800
X3.12700 Y-2.31800
X3.12700 Y-2.31700
X3.12600 Y-2.31700
X3.12600 Y-2.31600
X3.12500 Y-2.31600
X3.12500 Y-2.31500
X3.12400 Y-2.31500
X3.12400 Y-2.31400
X3.12300 Y-2.31400
X3.12300 Y-2.31300
X3.12200 Y-2.31300
X3.12200 Y-2.31200
X3.12100 Y-2.31200
X3.12100 Y-2.31100
X3.12000 Y-2.31100
X3.12000 Y-2.31000
X3.11900 Y-2.31000
X3.11900 Y-2.30900
X3.11800 Y-2.30900
X3.11800 Y-2.30800
X3.11700 Y-2.30800
X3.11700 Y-2.30700
X3.11600 Y-2.30700
X3.11600 Y-2.30600
X3.11500 Y-2.30600
X3.11500 Y-2.30500
X3.11400 Y-2.30500
X3.11400 Y-2.30400
X3.11300 Y-2.30400
X3.11300 Y-2.30300
X3.11200 Y-2.30300
X3.11200 Y-2.30200
X3.11100 Y-2.30200
X3.11100 Y-2.30100
X3.11000 Y-2.30100
X3.11000 Y-2.30000
X3.10900 Y-2.30000
X3.10900 Y-2.29900
X3.10800 Y-2.29900
X3.10800 Y-2.29800
X3.10700 Y-2.29800
X3.10700 Y-2.29700
X3.10600 Y-2.29700
X3.10600 Y-2.29600
X3.10500 Y-2.29600
X3.10500 Y-2.29500
X3.10400 Y-2.29500
X3.10400 Y-2.29400
X3.10300 Y-2.29400
X3.10300 Y-2.29300
X3.10200 Y-2.29300
X3.10200 Y-2.29200
X3.10100 Y-2.29200
X3.10100 Y-2.29100
X3.10000 Y-2.29100
X3.10000 Y-2.29000
X3.09900 Y-2.29000
X3.09900 Y-2.28900
X3.09800 Y-2.28900
X3.09800 Y-2.28800
X3.09700 Y-2.28800
X3.09700 Y-2.28700
X3.09600 Y-2.28700
X3.09600 Y-2.28600
X3.09500 Y-2.28600
X3.09500 Y-2.28500
X3.09400 Y-2.28500
X3.09400 Y-2.28400
X3.09300 Y-2.28400
X3.09300 Y-2.28300
X3.09200 Y-2.28300
X3.09200 Y-2.28200
X3.09100 Y-2.28200
X3.09100 Y-2.28100
X3.09000 Y-2.28100
X3.09000 Y-2.28000
X3.08900 Y-2.28000
X3.08900 Y-2.27900
X3.08800 Y-2.27900
X3.08800 Y-2.27800
X3.08700 Y-2.27800
X3.08700 Y-2.27700
X3.08600 Y-2.27700
X3.08600 Y-2.27600
X3.08500 Y-2.27600
X3.08500 Y-2.27500
X3.08400 Y-2.27500
X3.08400 Y-2.27400
X3.08300 Y-2.27400
X3.08300 Y-2.27300
X3.08200 Y-2.27300
X3.08200 Y-2.27200
X3.08100 Y-2.27200
X3.08100 Y-2.27100
X3.08000 Y-2.27100
X3.08000 Y-2.27000
X3.07900 Y-2.27000
X3.07900 Y-2.26900
X3.07800 Y-2.26900
X3.07800 Y-2.26800
X3.07700 Y-2.26800
X3.07700 Y-2.26700
X3.07600 Y-2.26700
X3.07600 Y-2.26600
X3.07500 Y-2.26600
X3.07500 Y-2.26500
X3.07400 Y-2.26500
X3.07400 Y-2.26400
X3.07300 Y-2.26400
X3.07300 Y-2.26300
X3.07200 Y-2.26300
X3.07200 Y-2.26200
X3.07100 Y-2.26200
X3.07100 Y-2.26100
X3.07000 Y-2.26100
X3.07000 Y-2.26000
X3.06900 Y-2.26000
X3.06900 Y-2.25900
X3.06800 Y-2.25900
X3.06800 Y-2.25800
X3.06700 Y-2.25800
X3.06700 Y-2.25700
X3.06600 Y-2.25700
X3.06600 Y-2.25600
X3.06500 Y-2.25600
X3.06500 Y-2.25500
X3.06400 Y-2.25500
X3.06400 Y-2.25400
X3.06300 Y-2.25400
X3.06300 Y-2.25300
X3.06200 Y-2.25300
X3.06200 Y-2.25200
X3.06100 Y-2.25200
X3.06100 Y-2.25100
X3.06000 Y-2.25100
X3.06000 Y-2.25000
X3.05900 Y-2.25000
X3.05900 Y-2.24900
X3.05800 Y-2.24900
X3.05800 Y-2.24800
X3.05700 Y-2.24800
X3.05700 Y-2.24700
X3.05600 Y-2.24700
X3.05600 Y-2.24600
X3.05500 Y-2.24600
X3.05500 Y-2.24500
X3.05400 Y-2.24500
X3.05400 Y-2.24400
X3.05300 Y-2.24400
X3.05300 Y-2.24300
X3.05200 Y-2.24300
X3.05200 Y-2.24200
X3.05100 Y-2.24200
X3.05100 Y-2.24100
X3.05000 Y-2.24100
X3.05000 Y-2.24000
X3.04900 Y-2.24000
X3.04900 Y-2.23900
X3.04800 Y-2.23900
X3.04800 Y-2.23800
X3.04700 Y-2.23800
X3.04700 Y-2.23700
X3.04600 Y-2.23700
X3.04600 Y-2.23600
X3.04500 Y-2.23600
X3.04500 Y-2.23500
X3.04400 Y-2.23500
X3.04400 Y-2.23400
X3.04300 Y-2.23400
X3.04300 Y-2.23300
X3.04200 Y-2.23300
X3.04200 Y-2.23200
X3.04100 Y-2.23200
X3.04100 Y-2.23100
X3.04000 Y-2.23100
X3.04000 Y-2.23000
X3.03900 Y-2.23000
X3.03900 Y-2.22900
X3.03800 Y-2.22900
X3.03800 Y-2.22800
X3.03700 Y-2.22800
X3.03700 Y-2.22700
X3.03600 Y-2.22700
X3.03600 Y-2.22600
X3.03500 Y-2.22600
X3.03500 Y-2.22500
X3.03400 Y-2.22500
X3.03400 Y-2.22400
X3.03300 Y-2.22400
X3.03300 Y-2.22300
X3.03200 Y-2.22300
X3.03200 Y-2.22200
X3.03100 Y-2.22200
X3.03100 Y-2.22100
X3.03000 Y-2.22100
X3.03000 Y-2.22000
X3.02900 Y-2.22000
X3.02900 Y-2.21900
X3.02800 Y-2.21900
X3.02800 Y-2.21800
X3.02700 Y-2.21800
X3.02700 Y-2.21700
X3.02600 Y-2.21700
X3.02600 Y-2.21600
X3.02500 Y-2.21600
X3.02500 Y-2.21500
X3.02400 Y-2.21500
X3.02400 Y-2.21400
X3.02300 Y-2.21400
X3.02300 Y-2.21300
X3.02200 Y-2.21300
X3.02200 Y-2.21200
X3.02100 Y-2.21200
X3.02100 Y-2.21100
X3.02000 Y-2.21100
X3.02000 Y-2.21000
X3.01900 Y-2.21000
X3.01900 Y-2.20900
X3.01800 Y-2.20900
X3.01800 Y-2.20800
X3.01700 Y-2.20800
X3.01700 Y-2.20700
X3.01600 Y-2.20700
X3.01600 Y-2.20600
X3.01500 Y-2.20600
X3.01500 Y-2.20500
X3.01400 Y-2.20500
X3.01400 Y-2.20400
X3.01300 Y-2.20400
X3.01300 Y-2.20300
X3.01200 Y-2.20300
X3.01200 Y-2.20200
X3.01100 Y-2.20200
X3.01100 Y-2.20100
X3.01000 Y-2.20100
X3.01000 Y-2.20000
X3.00900 Y-2.20000
X3.00900 Y-2.19900
X3.00800 Y-2.19900
X3.00800 Y-2.19800
X3.00700 Y-2.19800
X3.00700 Y-2.19700
X3.00600 Y-2.19700
X3.00600 Y-2.19600
X3.00500 Y-2.19600
X3.00500 Y-2.19500
X3.00400 Y-2.19500
X3.00400 Y-2.19400
X3.00300 Y-2.19400
X3.00300 Y-2.19300
X3.00200 Y-2.19300
X3.00200 Y-2.19200
X3.00100 Y-2.19200
X3.00100 Y-2.19100
X3.00000 Y-2.19100
X3.00000 Y-2.19000
X2.99900 Y-2.19000
X2.99900 Y-2.18900
X2.99800 Y-2.18900
X2.99800 Y-2.18800
X2.99700 Y-2.18800
X2.99700 Y-2.18700
X2.99600 Y-2.18700
X2.99600 Y-2.18600
X2.99500 Y-2.18600
X2.99500 Y-2.18500
X2.99400 Y-2.18500
X2.99400 Y-2.18400
X2.99300 Y-2.18400
X2.99300 Y-2.18300
X2.99200 Y-2.18300
X2.99200 Y-2.18200
X2.99100 Y-2.18200
X2.99100 Y-2.18100
X2.99000 Y-2.18100
X2.99000 Y-2.18000
X2.98900 Y-2.18000
X2.98900 Y-2.17900
X2.98800 Y-2.17900
X2.98800 Y-2.17800
X2.98700 Y-2.17800
X2.98700 Y-2.17700
X2.98600 Y-2.17700
X2.98600 Y-2.17600
X2.98500 Y-2.17600
X2.98500 Y-2.17500
X2.98400 Y-2.17500
X2.98400 Y-2.17400
X2.98300 Y-2.17400
X2.98300 Y-2.17300
X2.98200 Y-2.17300
X2.98200 Y-2.17200
X2.98100 Y-2.17200
X2.98100 Y-2.17100
X2.98000 Y-2.17100
X2.98000 Y-2.17000
X2.97900 Y-2.17000
X2.97900 Y-2.16900
X2.97800 Y-2.16900
X2.97800 Y-2.16800
X2.97700 Y-2.16800
X2.97700 Y-2.16700
X2.97600 Y-2.16700
X2.97600 Y-2.16600
X2.97500 Y-2.16600
X2.97500 Y-2.16500
X2.97400 Y-2.16500
X2.97400 Y-2.16400
X2.97300 Y-2.16400
X2.97300 Y-2.16300
X2.97200 Y-2.16300
X2.97200 Y-2.16200
X2.97100 Y-2.16200
X2.97100 Y-2.16100
X2.97000 Y-2.16100
X2.97000 Y-2.16000
X2.96900 Y-2.16000
X2.96900 Y-2.15900
X2.96800 Y-2.15900
X2.96800 Y-2.15800
X2.96700 Y-2.15800
X2.96700 Y-2.15700
X2.96600 Y-2.15700
X2.96600 Y-2.15600
X2.96500 Y-2.15600
X2.96500 Y-2.15500
X2.96400 Y-2.15500
X2.96400 Y-2.15400
X2.96300 Y-2.15400
X2.96300 Y-2.15300
X2.96200 Y-2.15300
X2.96200 Y-2.15200
X2.96100 Y-2.15200
X2.96100 Y-2.15100
X2.96000 Y-2.15100
X2.96000 Y-2.15000
X2.95900 Y-2.15000
X2.95900 Y-2.14900
X2.95800 Y-2.14900
X2.95800 Y-2.14800
X2.95700 Y-2.14800
X2.95700 Y-2.14700
X2.95600 Y-2.14700
X2.95600 Y-2.14600
X2.95500 Y-2.14600
X2.95500 Y-2.14500
X2.95400 Y-2.14500
X2.95400 Y-2.14400
X2.95300 Y-2.14400
X2.95300 Y-2.14300
X2.95200 Y-2.14300
X2.95200 Y-2.14200
X2.95100 Y-2.14200
X2.95100 Y-2.14100
X2.95000 Y-2.14100
X2.95000 Y-2.14000
X2.94900 Y-2.14000
X2.94900 Y-2.13900
X2.94800 Y-2.13900
X2.94800 Y-2.13800
X2.94700 Y-2.13800
X2.94700 Y-2.13700
X2.94600 Y-2.13700
X2.94600 Y-2.13600
X2.94500 Y-2.13600
X2.94500 Y-2.13500
X2.94400 Y-2.13500
X2.94400 Y-2.13400
X2.94300 Y-2.13400
X2.94300 Y-2.13300
X2.94200 Y-2.13300
X2.94200 Y-2.13200
X2.94100 Y-2.13200
X2.94100 Y-2.13100
X2.94000 Y-2.13100
X2.94000 Y-2.13000
X2.93900 Y-2.13000
X2.93900 Y-2.12900
X2.93800 Y-2.12900
X2.93800 Y-2.12800
X2.93700 Y-2.12800
X2.93700 Y-2.12700
X2.93600 Y-2.12700
X2.93600 Y-2.12600
X2.93500 Y-2.12600
X2.93500 Y-2.12500
X2.93400 Y-2.12500
X2.93400 Y-2.12400
X2.93300 Y-2.12400
X2.93300 Y-2.12300
X2.93200 Y-2.12300
X2.93200 Y-2.12200
X2.93100 Y-2.12200
X2.93100 Y-2.12100
X2.93000 Y-2.12100
X2.93000 Y-2.12000
X2.92900 Y-2.12000
X2.92900 Y-2.11900
X2.92800 Y-2.11900
X2.92800 Y-2.11800
X2.92700 Y-2.11800
X2.92700 Y-2.11700
X2.92600 Y-2.11700
X2.92600 Y-2.11600
X2.92500 Y-2.11600
X2.92500 Y-2.11500
X2.92400 Y-2.11500
X2.92400 Y-2.11400
X2.92300 Y-2.11400
X2.92300 Y-2.11300
X2.92200 Y-2.11300
X2.92200 Y-2.11200
X2.92100 Y-2.11200
X2.92100 Y-2.11100
X2.92000 Y-2.11100
X2.92000 Y-2.11000
X2.91900 Y-2.11000
X2.91900 Y-2.10900
X2.91800 Y-2.10900
X2.91800 Y-2.10800
X2.91700 Y-2.10800
X2.91700 Y-2.10700
X2.91600 Y-2.10700
X2.91600 Y-2.10600
X2.91500 Y-2.10600
X2.91500 Y-2.10500
X2.91400 Y-2.10500
X2.91400 Y-2.10400
X2.91300 Y-2.10400
X2.91300 Y-2.10300
X2.91200 Y-2.10300
X2.91200 Y-2.10200
X2.91100 Y-2.10200
X2.91100 Y-2.10100
X2.91000 Y-2.10100
X2.91000 Y-2.10000
X2.90900 Y-2.10000
X2.90900 Y-2.09900
X2.90800 Y-2.09900
X2.90800 Y-2.09800
X2.90700 Y-2.09800
X2.90700 Y-2.09700
X2.90600 Y-2.09700
X2.90600 Y-2.09600
X2.90500 Y-2.09600
X2.90500 Y-2.09500
X2.90400 Y-2.09500
X2.90400 Y-2.09400
X2.90300 Y-2.09400
X2.90300 Y-2.09300
X2.90200 Y-2.09300
X2.90200 Y-2.09200
X2.90100 Y-2.09200
X2.90100 Y-2.09100
X2.90000 Y-2.09100
X2.90000 Y-2.09000
X2.89900 Y-2.09000
X2.89900 Y-2.08900
X2.89800 Y-2.08900
X2.89800 Y-2.08800
X2.89700 Y-2.08800
X2.89700 Y-2.08700
X2.89600 Y-2.08700
X2.89600 Y-2.08600
X2.89500 Y-2.08600
X2.89500 Y-2.08500
X2.89400 Y-2.08500
X2.89400 Y-2.08400
X2.89300 Y-2.08400
X2.89300 Y-2.08300
X2.89200 Y-2.08300
X2.89200 Y-2.08200
X2.89100 Y-2.08200
X2.89100 Y-2.08100
X2.89000 Y-2.08100
X2.89000 Y-2.08000
X2.88900 Y-2.08000
X2.88900 Y-2.07900
X2.88800 Y-2.07900
X2.88800 Y-2.07800
X2.88700 Y-2.07800
X2.88700 Y-2.07700
X2.88600 Y-2.07700
X2.88600 Y-2.07600
X2.88500 Y-2.07600
X2.88500 Y-2.07500
X2.88400 Y-2.07500
X2.88400 Y-2.07400
X2.88300 Y-2.07400
X2.88300 Y-2.07300
X2.88200 Y-2.07300
X2.88200 Y-2.07200
X2.88100 Y-2.07200
X2.88100 Y-2.07100
X2.88000 Y-2.07100
X2.88000 Y-2.07000
X2.87900 Y-2.07000
X2.87900 Y-2.06900
X2.87800 Y-2.06900
X2.87800 Y-2.06800
X2.87700 Y-2.06800
X2.87700 Y-2.06700
X2.87600 Y-2.06700
X2.87600 Y-2.06600
X2.87500 Y-2.06600
X2.87500 Y-2.06500
X2.87400 Y-2.06500
X2.87400 Y-2.06400
X2.87300 Y-2.06400
X2.87300 Y-2.06300
X2.87200 Y-2.06300
X2.87200 Y-2.06200
X2.87100 Y-2.06200
X2.87100 Y-2.06100
X2.87000 Y-2.06100
X2.87000 Y-2.06000
X2.86900 Y-2.06000
X2.86900 Y-2.05900
X2.86800 Y-2.05900
X2.86800 Y-2.05800
X2.86700 Y-2.05800
X2.86700 Y-2.05700
X2.86600 Y-2.05700
X2.86600 Y-2.05600
X2.86500 Y-2.05600
X2.86500 Y-2.05500
X2.86400 Y-2.05500
X2.86400 Y-2.05400
X2.86300 Y-2.05400
X2.86300 Y-2.05300
X2.86200 Y-2.05300
X2.86200 Y-2.05200
X2.86100 Y-2.05200
X2.86100 Y-2.05100
X2.86000 Y-2.05100
X2.86000 Y-2.05000
X2.85900 Y-2.05000
X2.85900 Y-2.04900
X2.85800 Y-2.04900
X2.85800 Y-2.04800
X2.85700 Y-2.04800
X2.85700 Y-2.04700
X2.85600 Y-2.04700
X2.85600 Y-2.04600
X2.85500 Y-2.04600
X2.85500 Y-2.04500
X2.85400 Y-2.04500
X2.85400 Y-2.04400
X2.85300 Y-2.04400
X2.85300 Y-2.04300
X2.85200 Y-2.04300
X2.85200 Y-2.04200
X2.85100 Y-2.04200
X2.85100 Y-2.04100
X2.85000 Y-2.04100
X2.85000 Y-2.04000
X2.84900 Y-2.04000
X2.84900 Y-2.03900
X2.84800 Y-2.03900
X2.84800 Y-2.03800
X2.84700 Y-2.03800
X2.84700 Y-2.03700
X2.84600 Y-2.03700
X2.84600 Y-2.03600
X2.84500 Y-2.03600
X2.84500 Y-2.03500
X2.84400 Y-2.03500
X2.84400 Y-2.03400
X2.84300 Y-2.03400
X2.84300 Y-2.03300
X2.84200 Y-2.03300
X2.84200 Y-2.03200
X2.84100 Y-2.03200
X2.84100 Y-2.03100
X2.84000 Y-2.03100
X2.84000 Y-2.03000
X2.83900 Y-2.03000
X2.83900 Y-2.02900
X2.83800 Y-2.02900
X2.83800 Y-2.02800
X2.83700 Y-2.02800
X2.83700 Y-2.02700
X2.83600 Y-2.02700
X2.83600 Y-2.02600
X2.83500 Y-2.02600
X2.83500 Y-2.02500
X2.83400 Y-2.02500
X2.83400 Y-2.02400
X2.83300 Y-2.02400
X2.83300 Y-2.02300
X2.83200 Y-2.02300
X2.83200 Y-2.02200
X2.83100 Y-2.02200
X2.83100 Y-2.02100
X2.83000 Y-2.02100
X2.83000 Y-2.02000
X2.82900 Y-2.02000
X2.82900 Y-2.01900
X2.82800 Y-2.01900
X2.82800 Y-2.01800
X2.82700 Y-2.01800
X2.82700 Y-2.01700
X2.82600 Y-2.01700
X2.82600 Y-2.01600
X2.82500 Y-2.01600
X2.82500 Y-2.01500
X2.82400 Y-2.01500
X2.82400 Y-2.01400
X2.82300 Y-2.01400
X2.82300 Y-2.01300
X2.82200 Y-2.01300
X2.82200 Y-2.01200
X2.82100 Y-2.01200
X2.82100 Y-2.01100
X2.82000 Y-2.01100
X2.82000 Y-2.01000
X2.81900 Y-2.01000
X2.81900 Y-2.00900
X2.81800 Y-2.00900
X2.81800 Y-2.00800
X2.81700 Y-2.00800
X2.81700 Y-2.00700
X2.81600 Y-2.00700
X2.81600 Y-2.00600
X2.81500 Y-2.00600
X2.81500 Y-2.00500
X2.81400 Y-2.00500
X2.81400 Y-2.00400
X2.81300 Y-2.00400
X2.81300 Y-2.00300
X2.81200 Y-2.00300
X2.81200 Y-2.00200
X2.81100 Y-2.00200
X2.81100 Y-2.00100
X2.81000 Y-2.00100
X2.81000 Y-2.00000
X2.80900 Y-2.00000
X2.80900 Y-1.99900
X2.80800 Y-1.99900
X2.80800 Y-1.99800
X2.80700 Y-1.99800
X2.80700 Y-1.99700
X2.80600 Y-1.99700
X2.80600 Y-1.99600
X2.80500 Y-1.99600
X2.80500 Y-1.99500
X2.80400 Y-1.99500
X2.80400 Y-1.99400
X2.80300 Y-1.99400
X2.80300 Y-1.99300
X2.80200 Y-1.99300
X2.80200 Y-1.99200
X2.80100 Y-1.99200
X2.80100 Y-1.99100
X2.80000 Y-1.99100
X2.80000 Y-1.99000
X2.79900 Y-1.99000
X2.79900 Y-1.98900
X2.79800 Y-1.98900
X2.79800 Y-1.98800
X2.79700 Y-1.98800
X2.79700 Y-1.98700
X2.79600 Y-1.98700
X2.79600 Y-1.98600
X2.79500 Y-1.98600
X2.79500 Y-1.98500
X2.79400 Y-1.98500
X2.79400 Y-1.98400
X2.79300 Y-1.98400
X2.79300 Y-1.98300
X2.79200 Y-1.98300
X2.79200 Y-1.98200
X2.79100 Y-1.98200
X2.79100 Y-1.98100
X2.79000 Y-1.98100
X2.79000 Y-1.98000
X2.78900 Y-1.98000
X2.78900 Y-1.97900
X2.78800 Y-1.97900
X2.78800 Y-1.97800
X2.78700 Y-1.97800
X2.78700 Y-1.97700
X2.78600 Y-1.97700
X2.78600 Y-1.97600
X2.78500 Y-1.97600
X2.78500 Y-1.97500
X2.78400 Y-1.97500
X2.78400 Y-1.97400
X2.78300 Y-1.97400
X2.78300 Y-1.97300
X2.78200 Y-1.97300
X2.78200 Y-1.97200
X2.78100 Y-1.97200
X2.78100 Y-1.97100
X2.78000 Y-1.97100
X2.78000 Y-1.97000
X2.77900 Y-1.97000
X2.77900 Y-1.96900
X2.77800 Y-1.96900
X2.77800 Y-1.96800
X2.77700 Y-1.96800
X2.77700 Y-1.96700
X2.77600 Y-1.96700
X2.77600 Y-1.96600
X2.77500 Y-1.96600
X2.77500 Y-1.96500
X2.77400 Y-1.96500
X2.77400 Y-1.96400
X2.77300 Y-1.96400
X2.77300 Y-1.96300
X2.77200 Y-1.96300
X2.77200 Y-1.96200
X2.77100 Y-1.96200
X2.77100 Y-1.96100
X2.77000 Y-1.96100
X2.77000 Y-1.96000
X2.76900 Y-1.96000
X2.76900 Y-1.95900
X2.76800 Y-1.95900
X2.76800 Y-1.95800
X2.76700 Y-1.95800
X2.76700 Y-1.95700
X2.76600 Y-1.95700
X2.76600 Y-1.95600
X2.76500 Y-1.95600
X2.76500 Y-1.95500
X2.76400 Y-1.95500
X2.76400 Y-1.95400
X2.76300 Y-1.95400
X2.76300 Y-1.95300
X2.76200 Y-1.95300
X2.76200 Y-1.95200
X2.76100 Y-1.95200
X2.76100 Y-1.95100
X2.76000 Y-1.95100
X2.76000 Y-1.95000
X2.75900 Y-1.95000
X2.75900 Y-1.94900
X2.75800 Y-1.94900
X2.75800 Y-1.94800
X2.75700 Y-1.94800
X2.75700 Y-1.94700
X2.75600 Y-1.94700
X2.75600 Y-1.94600
X2.75500 Y-1.94600
X2.75500 Y-1.94500
X2.75400 Y-1.94500
X2.75400 Y-1.94400
X2.75300 Y-1.94400
X2.75300 Y-1.94300
X2.75200 Y-1.94300
X2.75200 Y-1.94200
X2.75100 Y-1.94200
X2.75100 Y-1.94100
X2.75000 Y-1.94100
X2.75000 Y-1.94000
X2.74900 Y-1.94000
X2.74900 Y-1.93900
X2.74800 Y-1.93900
X2.74800 Y-1.93800
X2.74700 Y-1.93800
X2.74700 Y-1.93700
X2.74600 Y-1.93700
X2.74600 Y-1.93600
X2.74500 Y-1.93600
X2.74500 Y-1.93500
X2.74400 Y-1.93500
X2.74400 Y-1.93400
X2.74300 Y-1.93400
X2.74300 Y-1.93300
X2.74200 Y-1.93300
X2.74200 Y-1.93200
X2.74100 Y-1.93200
X2.74100 Y-1.93100
X2.74000 Y-1.93100
X2.74000 Y-1.93000
X2.73900 Y-1.93000
X2.73900 Y-1.92900
X2.73800 Y-1.92900
X2.73800 Y-1.92800
X2.73700 Y-1.92800
X2.73700 Y-1.92700
X2.73600 Y-1.92700
X2.73600 Y-1.92600
X2.73500 Y-1.92600
X2.73500 Y-1.92500
X2.73400 Y-1.92500
X2.73400 Y-1.92400
X2.73300 Y-1.92400
X2.73300 Y-1.92300
X2.73200 Y-1.92300
X2.73200 Y-1.92200
X2.73100 Y-1.92200
X2.73100 Y-1.92100
X2.73000 Y-1.92100
X2.73000 Y-1.92000
X2.72900 Y-1.92000
X2.72900 Y-1.91900
X2.72800 Y-1.91900
X2.72800 Y-1.91800
X2.72700 Y-1.91800
X2.72700 Y-1.91700
X2.72600 Y-1.91700
X2.72600 Y-1.91600
X2.72500 Y-1.91600
X2.72500 Y-1.91500
X2.72400 Y-1.91500
X2.72400 Y-1.91400
X2.72300 Y-1.91400
X2.72300 Y-1.91300
X2.72200 Y-1.91300
X2.72200 Y-1.91200
X2.72100 Y-1.91200
X2.72100 Y-1.91100
X2.72000 Y-1.91100
X2.72000 Y-1.91000
X2.71900 Y-1.91000
X2.71900 Y-1.90900
X2.71800 Y-1.90900
X2.71800 Y-1.90800
X2.71700 Y-1.90800
X2.71700 Y-1.90700
X2.71600 Y-1.90700
X2.71600 Y-1.90600
X2.71500 Y-1.90600
X2.71500 Y-1.90500
X2.71400 Y-1.90500
X2.71400 Y-1.90400
X2.71300 Y-1.90400
X2.71300 Y-1.90300
X2.71200 Y-1.90300
X2.71200 Y-1.90200
X2.71100 Y-1.90200
X2.71100 Y-1.90100
X2.71000 Y-1.90100
X2.71000 Y-1.90000
X2.70900 Y-1.90000
X2.70900 Y-1.89900
X2.70800 Y-1.89900
X2.70800 Y-1.89800
X2.70700 Y-1.89800
X2.70700 Y-1.89700
X2.70600 Y-1.89700
X2.70600 Y-1.89600
X2.70500 Y-1.89600
X2.70500 Y-1.89500
X2.70400 Y-1.89500
X2.70400 Y-1.89400
X2.70300 Y-1.89400
X2.70300 Y-1.89300
X2.70200 Y-1.89300
X2.70200 Y-1.89200
X2.70100 Y-1.89200
X2.70100 Y-1.89100
X2.70000 Y-1.89100
X2.70000 Y-1.89000
X2.69900 Y-1.89000
X2.69900 Y-1.88900
X2.69800 Y-1.88900
X2.69800 Y-1.88800
X2.69700 Y-1.88800
X2.69700 Y-1.88700
X2.69600 Y-1.88700
X2.69600 Y-1.88600
X2.69500 Y-1.88600
X2.69500 Y-1.88500
X2.69400 Y-1.88500
X2.69400 Y-1.88400
X2.69300 Y-1.88400
X2.69300 Y-1.88300
X2.69200 Y-1.88300
X2.69200 Y-1.88200
X2.69100 Y-1.88200
X2.69100 Y-1.88100
X2.69000 Y-1.88100
X2.69000 Y-1.88000
X2.68900 Y-1.88000
X2.68900 Y-1.87900
X2.68800 Y-1.87900
X2.68800 Y-1.87800
X2.68700 Y-1.87800
X2.68700 Y-1.87700
X2.68600 Y-1.87700
X2.68600 Y-1.87600
X2.68500 Y-1.87600
X2.68500 Y-1.87500
X2.68400 Y-1.87500
X2.68400 Y-1.87400
X2.68300 Y-1.87400
X2.68300 Y-1.87300
X2.68200 Y-1.87300
X2.68200 Y-1.87200
X2.68100 Y-1.87200
X2.68100 Y-1.87100
X2.68000 Y-1.87100
X2.68000 Y-1.87000
X2.67900 Y-1.87000
X2.67900 Y-1.86900
X2.67800 Y-1.86900
X2.67800 Y-1.86800
X2.67700 Y-1.86800
X2.67700 Y-1.86700
X2.67600 Y-1.86700
X2.67600 Y-1.86600
X2.67500 Y-1.86600
X2.67500 Y-1.86500
X2.67400 Y-1.86500
X2.67400 Y-1.86400
X2.67300 Y-1.86400
X2.67300 Y-1.86300
X2.67200 Y-1.86300
X2.67200 Y-1.86200
X2.67100 Y-1.86200
X2.67100 Y-1.86100
X2.67000 Y-1.86100
X2.67000 Y-1.86000
X2.66900 Y-1.86000
X2.66900 Y-1.85900
X2.66800 Y-1.85900
X2.66800 Y-1.85800
X2.66700 Y-1.85800
X2.66700 Y-1.85700
X2.66600 Y-1.85700
X2.66600 Y-1.85600
X2.66500 Y-1.85600
X2.66500 Y-1.85500
X2.66400 Y-1.85500
X2.66400 Y-1.85400
X2.66300 Y-1.85400
X2.66300 Y-1.85300
X2.66200 Y-1.85300
X2.66200 Y-1.85200
X2.66100 Y-1.85200
X2.66100 Y-1.85100
X2.66000 Y-1.85100
X2.66000 Y-1.85000
X2.65900 Y-1.85000
X2.65900 Y-1.84900
X2.65800 Y-1.84900
X2.65800 Y-1.84800
X2.65700 Y-1.84800
X2.65700 Y-1.84700
X2.65600 Y-1.84700
X2.65600 Y-1.84600
X2.65500 Y-1.84600
X2.65500 Y-1.84500
X2.65400 Y-1.84500
X2.65400 Y-1.84400
X2.65300 Y-1.84400
X2.65300 Y-1.84300
X2.65200 Y-1.84300
X2.65200 Y-1.84200
X2.65100 Y-1.84200
X2.65100 Y-1.84100
X2.65000 Y-1.84100
X2.65000 Y-1.84000
X2.64900 Y-1.84000
X2.64900 Y-1.83900
X2.64800 Y-1.83900
X2.64800 Y-1.83800
X2.64700 Y-1.83800
X2.64700 Y-1.83700
X2.64600 Y-1.83700
X2.64600 Y-1.83600
X2.64500 Y-1.83600
X2.64500 Y-1.83500
X2.64400 Y-1.83500
X2.64400 Y-1.83400
X2.64300 Y-1.83400
X2.64300 Y-1.83300
X2.64200 Y-1.83300
X2.64200 Y-1.83200
X2.64100 Y-1.83200
X2.64100 Y-1.83100
X2.64000 Y-1.83100
X2.64000 Y-1.83000
X2.63900 Y-1.83000
X2.63900 Y-1.82900
X2.63800 Y-1.82900
X2.63800 Y-1.82800
X2.63700 Y-1.82800
X2.63700 Y-1.82700
X2.63600 Y-1.82700
X2.63600 Y-1.82600
X2.63500 Y-1.82600
X2.63500 Y-1.82500
X2.63400 Y-1.82500
X2.63400 Y-1.82400
X2.63300 Y-1.82400
X2.63300 Y-1.82300
X2.63200 Y-1.82300
X2.63200 Y-1.82200
X2.63100 Y-1.82200
X2.63100 Y-1.82100
X2.63000 Y-1.82100
X2.63000 Y-1.82000
X2.62900 Y-1.82000
X2.62900 Y-1.81900
X2.62800 Y-1.81900
X2.62800 Y-1.81800
X2.62700 Y-1.81800
X2.62700 Y-1.81700
X2.62600 Y-1.81700
X2.62600 Y-1.81600
X2.62500 Y-1.81600
X2.62500 Y-1.81500
X2.62300 Y-1.81500
X2.62300 Y-1.81400
X2.62200 Y-1.81400
X2.62200 Y-1.81300
X2.62100 Y-1.81300
X2.62100 Y-1.81200
X2.62000 Y-1.81200
X2.62000 Y-1.81100
X2.61900 Y-1.81100
X2.61900 Y-1.81000
X2.61800 Y-1.81000
X2.61800 Y-1.80900
X2.61700 Y-1.80900
X2.61700 Y-1.80800
X2.61600 Y-1.80800
X2.61600 Y-1.80700
X2.61500 Y-1.80700
X2.61500 Y-1.80600
X2.61400 Y-1.80600
X2.61400 Y-1.80500
X2.61300 Y-1.80500
X2.61300 Y-1.80400
X2.61200 Y-1.80400
X2.61200 Y-1.80300
X2.61100 Y-1.80300
X2.61100 Y-1.80200
X2.61000 Y-1.80200
X2.61000 Y-1.80100
X2.60900 Y-1.80100
X2.60900 Y-1.80000
X2.60800 Y-1.80000
X2.60800 Y-1.79900
X2.60700 Y-1.79900
X2.60700 Y-1.79800
X2.60600 Y-1.79800
X2.60600 Y-1.79700
X2.60500 Y-1.79700
X2.60500 Y-1.79600
X2.60400 Y-1.79600
X2.60400 Y-1.79500
X2.60300 Y-1.79500
X2.60300 Y-1.79400
X2.60200 Y-1.79400
X2.60200 Y-1.79300
X2.60100 Y-1.79300
X2.60100 Y-1.79200
X2.60000 Y-1.79200
X2.60000 Y-1.79100
X2.59900 Y-1.79100
X2.59900 Y-1.79000
X2.59800 Y-1.79000
X2.59800 Y-1.78900
X2.59700 Y-1.78900
X2.59700 Y-1.78800
X2.59600 Y-1.78800
X2.59600 Y-1.78700
X2.59500 Y-1.78700
X2.59500 Y-1.78600
X2.59400 Y-1.78600
X2.59400 Y-1.78500
X2.59300 Y-1.78500
X2.59300 Y-1.78400
X2.59200 Y-1.78400
X2.59200 Y-1.78300
X2.59100 Y-1.78300
X2.59100 Y-1.78200
X2.59000 Y-1.78200
X2.59000 Y-1.78100
X2.58900 Y-1.78100
X2.58900 Y-1.78000
X2.58800 Y-1.78000
X2.58800 Y-1.77900
X2.58700 Y-1.77900
X2.58700 Y-1.77800
X2.58600 Y-1.77800
X2.58600 Y-1.77700
X2.58500 Y-1.77700
X2.58500 Y-1.77600
X2.58400 Y-1.77600
X2.58400 Y-1.77500
X2.58300 Y-1.77500
X2.58300 Y-1.77400
X2.58200 Y-1.77400
X2.58200 Y-1.77300
X2.58100 Y-1.77300
X2.58100 Y-1.77200
X2.58000 Y-1.77200
X2.58000 Y-1.77100
X2.57900 Y-1.77100
X2.57900 Y-1.77000
X2.57800 Y-1.77000
X2.57800 Y-1.76900
X2.57700 Y-1.76900
X2.57700 Y-1.76800
X2.57600 Y-1.76800
X2.57600 Y-1.76700
X2.57500 Y-1.76700
X2.57500 Y-1.76600
X2.57400 Y-1.76600
X2.57400 Y-1.76500
X2.57300 Y-1.76500
X2.57300 Y-1.76400
X2.57200 Y-1.76400
X2.57200 Y-1.76300
X2.57100 Y-1.76300
X2.57100 Y-1.76200
X2.57000 Y-1.76200
X2.57000 Y-1.76100
X2.56900 Y-1.76100
X2.56900 Y-1.76000
X2.56800 Y-1.76000
X2.56800 Y-1.75900
X2.56700 Y-1.75900
X2.56700 Y-1.75800
X2.56600 Y-1.75800
X2.56600 Y-1.75700
X2.56500 Y-1.75700
X2.56500 Y-1.75600
X2.56300 Y-1.75600
X2.56300 Y-1.75500
X2.56200 Y-1.75500
X2.56200 Y-1.75400
X2.56100 Y-1.75400
X2.56100 Y-1.75300
X2.55900 Y-1.75300
X2.55900 Y-1.75200
X2.55700 Y-1.75200
X2.55700 Y-1.75100
X2.55100 Y-1.75100
X2.55100 Y-1.75000
X2.32700 Y-1.75000
X2.32700 Y-1.74900
X2.32600 Y-1.74900
X2.32600 Y-1.74800
X2.32500 Y-1.74800
X2.32500 Y-1.74600
X2.32400 Y-1.74600
X2.32400 Y-1.74300
X2.32300 Y-1.74300
X2.32300 Y-1.74000
X2.32200 Y-1.74000
X2.32200 Y-1.73800
X2.32100 Y-1.73800
X2.32100 Y-1.73600
X2.32000 Y-1.73600
X2.32000 Y-1.73500
X2.31900 Y-1.73500
X2.31900 Y-1.73400
X2.31800 Y-1.73400
X2.31800 Y-1.73300
X2.31700 Y-1.73300
X2.31700 Y-1.73200
X2.31600 Y-1.73200
X2.31600 Y-1.73100
X2.31500 Y-1.73100
X2.31500 Y-1.73000
X2.31300 Y-1.73000
X2.31300 Y-1.72900
X2.31000 Y-1.72900
X2.31000 Y-1.72800
X2.30400 Y-1.72800
X2.30400 Y-1.72700
X2.26500 Y-1.72700
X2.26500 Y-1.72800
X2.26300 Y-1.72800
X2.26300 Y-1.72900
X2.26000 Y-1.72900
X2.26000 Y-1.73000
X2.25900 Y-1.73000
X2.25900 Y-1.73100
X2.25800 Y-1.73100
X2.25800 Y-1.73200
X2.25700 Y-1.73200
X2.25700 Y-1.73300
X2.25600 Y-1.73300
X2.25600 Y-1.73400
X2.25500 Y-1.73400
X2.25500 Y-1.73500
X2.25400 Y-1.73500
X2.25400 Y-1.73600
X2.24500 Y-1.73600
X2.24500 Y-1.73500
X2.24400 Y-1.73500
X2.24400 Y-1.73400
X2.24300 Y-1.73400
X2.24300 Y-1.73300
X2.24200 Y-1.73300
X2.24200 Y-1.73200
X2.24100 Y-1.73200
X2.24100 Y-1.73100
X2.24000 Y-1.73100
X2.24000 Y-1.73000
X2.23800 Y-1.73000
X2.23800 Y-1.72900
X2.23500 Y-1.72900
X2.23500 Y-1.72800
X2.22900 Y-1.72800
X2.22900 Y-1.72700
X2.19000 Y-1.72700
X2.19000 Y-1.72800
X2.18800 Y-1.72800
X2.18800 Y-1.72900
X2.18500 Y-1.72900
X2.18500 Y-1.73000
X2.18400 Y-1.73000
X2.18400 Y-1.73100
X2.18300 Y-1.73100
X2.18300 Y-1.73200
X2.18200 Y-1.73200
X2.18200 Y-1.73300
X2.18100 Y-1.73300
X2.18100 Y-1.73400
X2.18000 Y-1.73400
X2.18000 Y-1.73500
X2.17900 Y-1.73500
X2.17900 Y-1.73600
X2.17800 Y-1.73600
X2.17800 Y-1.73800
X2.17700 Y-1.73800
X2.17700 Y-1.74000
X2.17600 Y-1.74000
X2.17600 Y-1.74300
X2.17500 Y-1.74300
X2.17500 Y-1.74600
X2.17400 Y-1.74600
X2.17400 Y-1.74800
X2.17300 Y-1.74800
X2.17300 Y-1.74900
X2.17200 Y-1.74900
X2.17200 Y-1.75000
X1.99700 Y-1.75000
X1.99700 Y-1.75100
X1.99100 Y-1.75100
X1.99100 Y-1.75200
X1.98900 Y-1.75200
X1.98900 Y-1.75300
X1.98800 Y-1.75300
X1.98800 Y-1.75400
X1.98600 Y-1.75400
X1.98600 Y-1.75500
X1.98500 Y-1.75500
X1.98500 Y-1.75600
X1.98400 Y-1.75600
X1.98400 Y-1.75700
X1.98300 Y-1.75700
X1.98300 Y-1.75800
X1.98200 Y-1.75800
X1.98200 Y-1.75900
X1.98100 Y-1.75900
X1.98100 Y-1.76000
X1.98000 Y-1.76000
X1.98000 Y-1.76100
X1.97900 Y-1.76100
X1.97900 Y-1.76200
X1.97800 Y-1.76200
X1.97800 Y-1.76300
X1.97700 Y-1.76300
X1.97700 Y-1.76400
X1.97600 Y-1.76400
X1.97600 Y-1.76500
X1.97500 Y-1.76500
X1.97500 Y-1.76600
X1.97400 Y-1.76600
X1.97400 Y-1.76700
X1.97300 Y-1.76700
X1.97300 Y-1.76800
X1.97200 Y-1.76800
X1.97200 Y-1.76900
X1.97100 Y-1.76900
X1.97100 Y-1.77000
X1.97000 Y-1.77000
X1.97000 Y-1.77100
X1.96900 Y-1.77100
X1.96900 Y-1.77200
X1.96800 Y-1.77200
X1.96800 Y-1.77300
X1.96700 Y-1.77300
X1.96700 Y-1.77400
X1.96600 Y-1.77400
X1.96600 Y-1.77500
X1.96500 Y-1.77500
X1.96500 Y-1.77600
X1.96400 Y-1.77600
X1.96400 Y-1.77700
X1.96300 Y-1.77700
X1.96300 Y-1.77800
X1.96200 Y-1.77800
X1.96200 Y-1.77900
X1.96100 Y-1.77900
X1.96100 Y-1.78000
X1.96000 Y-1.78000
X1.96000 Y-1.78100
X1.95900 Y-1.78100
X1.95900 Y-1.78200
X1.95800 Y-1.78200
X1.95800 Y-1.78300
X1.95700 Y-1.78300
X1.95700 Y-1.78400
X1.95600 Y-1.78400
X1.95600 Y-1.78500
X1.95500 Y-1.78500
X1.95500 Y-1.78600
X1.95400 Y-1.78600
X1.95400 Y-1.78700
X1.95300 Y-1.78700
X1.95300 Y-1.78800
X1.95200 Y-1.78800
X1.95200 Y-1.78900
X1.95100 Y-1.78900
X1.95100 Y-1.79000
X1.95000 Y-1.79000
X1.95000 Y-1.79100
X1.94900 Y-1.79100
X1.94900 Y-1.79200
X1.94800 Y-1.79200
X1.94800 Y-1.79300
X1.94700 Y-1.79300
X1.94700 Y-1.79400
X1.94600 Y-1.79400
X1.94600 Y-1.79500
X1.94500 Y-1.79500
X1.94500 Y-1.79600
X1.94400 Y-1.79600
X1.94400 Y-1.79700
X1.94300 Y-1.79700
X1.94300 Y-1.79800
X1.94200 Y-1.79800
X1.94200 Y-1.79900
X1.94100 Y-1.79900
X1.94100 Y-1.80000
X1.94000 Y-1.80000
X1.94000 Y-1.80100
X1.93900 Y-1.80100
X1.93900 Y-1.80200
X1.93800 Y-1.80200
X1.93800 Y-1.80300
X1.93700 Y-1.80300
X1.93700 Y-1.80400
X1.93600 Y-1.80400
X1.93600 Y-1.80500
X1.93500 Y-1.80500
X1.93500 Y-1.80600
X1.93400 Y-1.80600
X1.93400 Y-1.80700
X1.93300 Y-1.80700
X1.93300 Y-1.80800
X1.93200 Y-1.80800
X1.93200 Y-1.80900
X1.93100 Y-1.80900
X1.93100 Y-1.81000
X1.93000 Y-1.81000
X1.93000 Y-1.81100
X1.92900 Y-1.81100
X1.92900 Y-1.81200
X1.92800 Y-1.81200
X1.92800 Y-1.81300
X1.92700 Y-1.81300
X1.92700 Y-1.81400
X1.92600 Y-1.81400
X1.92600 Y-1.81500
X1.92500 Y-1.81500
X1.92500 Y-1.81600
X1.92400 Y-1.81600
X1.92400 Y-1.81700
X1.92300 Y-1.81700
X1.92300 Y-1.81800
X1.92200 Y-1.81800
X1.92200 Y-1.81900
X1.92100 Y-1.81900
X1.92100 Y-1.82000
X1.92000 Y-1.82000
X1.92000 Y-1.82100
X1.91900 Y-1.82100
X1.91900 Y-1.82200
X1.91800 Y-1.82200
X1.91800 Y-1.82300
X1.91700 Y-1.82300
X1.91700 Y-1.82400
X1.91600 Y-1.82400
X1.91600 Y-1.82500
X1.91500 Y-1.82500
X1.91500 Y-1.82600
X1.91400 Y-1.82600
X1.91400 Y-1.82700
X1.91300 Y-1.82700
X1.91300 Y-1.82800
X1.91200 Y-1.82800
X1.91200 Y-1.82900
X1.91100 Y-1.82900
X1.91100 Y-1.83000
X1.91000 Y-1.83000
X1.91000 Y-1.83100
X1.90900 Y-1.83100
X1.90900 Y-1.83200
X1.90800 Y-1.83200
X1.90800 Y-1.83300
X1.90700 Y-1.83300
X1.90700 Y-1.83400
X1.90600 Y-1.83400
X1.90600 Y-1.83500
X1.90500 Y-1.83500
X1.90500 Y-1.83600
X1.90400 Y-1.83600
X1.90400 Y-1.83700
X1.90300 Y-1.83700
X1.90300 Y-1.83800
X1.90200 Y-1.83800
X1.90200 Y-1.83900
X1.90100 Y-1.83900
X1.90100 Y-1.84000
X1.90000 Y-1.84000
X1.90000 Y-1.84100
X1.89900 Y-1.84100
X1.89900 Y-1.84200
X1.89800 Y-1.84200
X1.89800 Y-1.84300
X1.89700 Y-1.84300
X1.89700 Y-1.84400
X1.89600 Y-1.84400
X1.89600 Y-1.84500
X1.89500 Y-1.84500
X1.89500 Y-1.84600
X1.89400 Y-1.84600
X1.89400 Y-1.84700
X1.89300 Y-1.84700
X1.89300 Y-1.84800
X1.89200 Y-1.84800
X1.89200 Y-1.84900
X1.89100 Y-1.84900
X1.89100 Y-1.85000
X1.89000 Y-1.85000
X1.89000 Y-1.85100
X1.88900 Y-1.85100
X1.88900 Y-1.85200
X1.88800 Y-1.85200
X1.88800 Y-1.85300
X1.88700 Y-1.85300
X1.88700 Y-1.85400
X1.88600 Y-1.85400
X1.88600 Y-1.85500
X1.88500 Y-1.85500
X1.88500 Y-1.85600
X1.88400 Y-1.85600
X1.88400 Y-1.85700
X1.88300 Y-1.85700
X1.88300 Y-1.85800
X1.88200 Y-1.85800
X1.88200 Y-1.85900
X1.88100 Y-1.85900
X1.88100 Y-1.86000
X1.88000 Y-1.86000
X1.88000 Y-1.86100
X1.87900 Y-1.86100
X1.87900 Y-1.86200
X1.87800 Y-1.86200
X1.87800 Y-1.86300
X1.87700 Y-1.86300
X1.87700 Y-1.86400
X1.87600 Y-1.86400
X1.87600 Y-1.86500
X1.87500 Y-1.86500
X1.87500 Y-1.86600
X1.87400 Y-1.86600
X1.87400 Y-1.86700
X1.87300 Y-1.86700
X1.87300 Y-1.86800
X1.87200 Y-1.86800
X1.87200 Y-1.86900
X1.87100 Y-1.86900
X1.87100 Y-1.87000
X1.87000 Y-1.87000
X1.87000 Y-1.87100
X1.86900 Y-1.87100
X1.86900 Y-1.87200
X1.86800 Y-1.87200
X1.86800 Y-1.87300
X1.86700 Y-1.87300
X1.86700 Y-1.87400
X1.86600 Y-1.87400
X1.86600 Y-1.87500
X1.86500 Y-1.87500
X1.86500 Y-1.87600
X1.86400 Y-1.87600
X1.86400 Y-1.87700
X1.86300 Y-1.87700
X1.86300 Y-1.87800
X1.86200 Y-1.87800
X1.86200 Y-1.87900
X1.86100 Y-1.87900
X1.86100 Y-1.88000
X1.86000 Y-1.88000
X1.86000 Y-1.88100
X1.85900 Y-1.88100
X1.85900 Y-1.88200
X1.85800 Y-1.88200
X1.85800 Y-1.88300
X1.85700 Y-1.88300
X1.85700 Y-1.88400
X1.85600 Y-1.88400
X1.85600 Y-1.88500
X1.85500 Y-1.88500
X1.85500 Y-1.88600
X1.85400 Y-1.88600
X1.85400 Y-1.88700
X1.85300 Y-1.88700
X1.85300 Y-1.88800
X1.85200 Y-1.88800
X1.85200 Y-1.88900
X1.85100 Y-1.88900
X1.85100 Y-1.89000
X1.85000 Y-1.89000
X1.85000 Y-1.89100
X1.84900 Y-1.89100
X1.84900 Y-1.89200
X1.84800 Y-1.89200
X1.84800 Y-1.89300
X1.84700 Y-1.89300
X1.84700 Y-1.89400
X1.84600 Y-1.89400
X1.84600 Y-1.89500
X1.84500 Y-1.89500
X1.84500 Y-1.89600
X1.84400 Y-1.89600
X1.84400 Y-1.89700
X1.84300 Y-1.89700
X1.84300 Y-1.89800
X1.84200 Y-1.89800
X1.84200 Y-1.89900
X1.84100 Y-1.89900
X1.84100 Y-1.90100
X1.84000 Y-1.90100
X1.84000 Y-1.90200
X1.83900 Y-1.90200
X1.83900 Y-1.90300
X1.83800 Y-1.90300
X1.83800 Y-1.90500
X1.83700 Y-1.90500
X1.83700 Y-1.90700
X1.83600 Y-1.90700
X1.83600 Y-1.91300
X1.83500 Y-1.91300
X1.83500 Y-2.02600
X1.83400 Y-2.02600
X1.83400 Y-2.02800
X1.83300 Y-2.02800
X1.83300 Y-2.02900
X1.83200 Y-2.02900
X1.83200 Y-2.03000
X1.83100 Y-2.03000
X1.83100 Y-2.03100
X1.83000 Y-2.03100
X1.83000 Y-2.03200
X1.82900 Y-2.03200
X1.82900 Y-2.03300
X1.82800 Y-2.03300
X1.82800 Y-2.03400
X1.82700 Y-2.03400
X1.82700 Y-2.03500
X1.82600 Y-2.03500
X1.82600 Y-2.03600
X1.82500 Y-2.03600
X1.82500 Y-2.03700
X1.82400 Y-2.03700
X1.82400 Y-2.03800
X1.82300 Y-2.03800
X1.82300 Y-2.03900
X1.82200 Y-2.03900
X1.82200 Y-2.04000
X1.82100 Y-2.04000
X1.82100 Y-2.04100
X1.82000 Y-2.04100
X1.82000 Y-2.04200
X1.81900 Y-2.04200
X1.81900 Y-2.04300
X1.81100 Y-2.04300
